lyeric2022/aaa/assets/motions/ghost_jab_combo_extracted/joint_pos.csv
joint_0,joint_1,joint_2,joint_3,joint_4,joint_5,joint_6,joint_7,joint_8,joint_9,joint_10,joint_11,joint_12,joint_13,joint_14,joint_15,joint_16,joint_17,joint_18,joint_19,joint_20,joint_21,joint_22,joint_23,joint_24,joint_25,joint_26,joint_27,joint_28
0.238351,0.067321,-0.097287,0.099410,0.051259,0.023601,0.323690,0.066874,0.016327,0.036095,0.152299,0.112534,0.204087,-0.333131,-0.288189,0.216202,-0.337004,0.065110,-0.146038,-0.427763,0.482328,1.230517,0.632625,0.016017,0.238240,0.050647,-0.037887,0.058818,-0.022149
0.210390,0.061333,-0.103778,0.096610,0.047297,0.022239,0.305716,0.064136,0.037459,0.086895,0.163763,0.055509,0.168994,-0.365563,-0.302427,0.227283,-0.366720,0.068231,-0.145207,-0.431934,0.471893,1.284481,0.632174,0.009127,0.274835,0.005287,-0.058716,0.027223,0.003116
0.190306,0.055869,-0.108637,0.094823,0.044889,0.021104,0.293960,0.064914,0.055112,0.123842,0.173233,0.012650,0.141933,-0.388973,-0.313741,0.233627,-0.389414,0.070543,-0.145525,-0.435148,0.464000,1.321561,0.621626,0.006056,0.298529,-0.026982,-0.075455,0.006634,0.019133
0.185978,0.051454,-0.110230,0.095062,0.045588,0.020420,0.294642,0.072724,0.065806,0.133085,0.178718,-0.001878,0.130935,-0.394338,-0.319208,0.230498,-0.398066,0.071237,-0.148141,-0.436448,0.461189,1.324874,0.590881,0.010621,0.296421,-0.033070,-0.084013,0.008054,0.016654
0.183154,0.047834,-0.112559,0.092818,0.045893,0.019281,0.293786,0.080461,0.073571,0.136763,0.183344,-0.013674,0.122127,-0.396762,-0.321314,0.227928,-0.408294,0.071196,-0.149388,-0.441767,0.462089,1.323622,0.555960,0.021533,0.291006,-0.036661,-0.090782,0.007728,0.016731
0.181081,0.044612,-0.115256,0.089332,0.046000,0.017914,0.292162,0.088161,0.079871,0.137660,0.187541,-0.024104,0.114415,-0.397714,-0.321739,0.225639,-0.419312,0.070787,-0.149951,-0.449096,0.464844,1.320088,0.518950,0.035618,0.283937,-0.039003,-0.096657,0.006530,0.018087
0.182384,0.042088,-0.116920,0.085086,0.045598,0.015300,0.291807,0.094449,0.083271,0.136737,0.192147,-0.031921,0.106258,-0.397502,-0.323745,0.222270,-0.430160,0.071443,-0.151356,-0.458711,0.469959,1.315016,0.476405,0.050843,0.275653,-0.038974,-0.101282,0.010516,0.011204
0.183993,0.039851,-0.118451,0.081109,0.045251,0.012694,0.291853,0.100085,0.086050,0.135833,0.196752,-0.039763,0.097630,-0.397193,-0.326243,0.218748,-0.441084,0.072222,-0.153214,-0.469738,0.476658,1.308647,0.433154,0.066332,0.267393,-0.039326,-0.105319,0.014058,0.007728
0.186217,0.038189,-0.119719,0.077668,0.045015,0.010102,0.292701,0.104419,0.087590,0.134967,0.201354,-0.047651,0.088062,-0.396689,-0.329724,0.214922,-0.452158,0.073248,-0.155982,-0.483590,0.486527,1.299683,0.388490,0.082352,0.259182,-0.040440,-0.108177,0.016713,0.011069
0.189586,0.036797,-0.119469,0.074450,0.044699,0.007127,0.295989,0.109848,0.088556,0.135082,0.205868,-0.055696,0.075935,-0.394584,-0.333851,0.210017,-0.461297,0.074143,-0.159327,-0.498568,0.498777,1.289825,0.345465,0.096586,0.253602,-0.041450,-0.109456,0.019120,0.013271
0.193529,0.035540,-0.118461,0.071343,0.044342,0.003961,0.300497,0.115825,0.089235,0.135688,0.210339,-0.063819,0.062528,-0.391678,-0.338301,0.204573,-0.469469,0.074973,-0.162962,-0.514109,0.512217,1.279521,0.303260,0.109927,0.249338,-0.042406,-0.109946,0.021403,0.014905
0.196378,0.032922,-0.116709,0.068845,0.042124,0.001442,0.303752,0.111100,0.089498,0.134660,0.214204,-0.072405,0.049334,-0.392744,-0.341199,0.199763,-0.477499,0.075371,-0.163156,-0.529377,0.529420,1.270010,0.252201,0.118161,0.273586,-0.043504,-0.114267,0.022730,0.020749
0.198346,0.030252,-0.113861,0.066915,0.040136,-0.001126,0.306388,0.104895,0.089183,0.134591,0.217350,-0.080451,0.035132,-0.393968,-0.343691,0.194921,-0.485170,0.075571,-0.162842,-0.543198,0.547012,1.260812,0.199688,0.124640,0.299411,-0.044847,-0.118484,0.021752,0.028296
0.198550,0.027478,-0.108821,0.066121,0.038606,-0.003792,0.307786,0.095728,0.087713,0.136441,0.219056,-0.087421,0.018914,-0.395510,-0.345370,0.190014,-0.492123,0.075376,-0.161510,-0.554125,0.565384,1.252241,0.144267,0.127607,0.328391,-0.046683,-0.122489,0.016161,0.039250
0.199542,0.024820,-0.102306,0.065234,0.035890,-0.005956,0.312619,0.087242,0.085550,0.138213,0.219240,-0.093435,-0.000183,-0.397243,-0.344633,0.185461,-0.496454,0.077023,-0.160855,-0.565135,0.584568,1.244961,0.084578,0.132627,0.361271,-0.045885,-0.122960,0.007826,0.052181
0.200928,0.022220,-0.095052,0.064300,0.032582,-0.007869,0.319169,0.079095,0.083040,0.139945,0.218663,-0.098970,-0.020721,-0.399071,-0.342688,0.181084,-0.499473,0.079591,-0.160538,-0.576186,0.604159,1.238328,0.022755,0.138673,0.396102,-0.043769,-0.121663,-0.001882,0.066101
0.201452,0.020261,-0.085595,0.062001,0.028305,-0.008619,0.321925,0.065819,0.078934,0.141292,0.220345,-0.101323,-0.050406,-0.402115,-0.336570,0.177752,-0.497636,0.081483,-0.157266,-0.589519,0.626022,1.232024,-0.043558,0.151239,0.438383,-0.039110,-0.115581,-0.015995,0.092816
0.202169,0.019154,-0.075228,0.059635,0.023382,-0.009805,0.325023,0.052611,0.074936,0.142756,0.220746,-0.102900,-0.080790,-0.405221,-0.331541,0.174522,-0.494164,0.083620,-0.153273,-0.601172,0.647201,1.225595,-0.108494,0.163350,0.480655,-0.034611,-0.108476,-0.029270,0.117216
0.203271,0.019749,-0.063039,0.057135,0.017168,-0.011865,0.328801,0.039539,0.071151,0.144453,0.218582,-0.102925,-0.112573,-0.408453,-0.328687,0.171494,-0.487421,0.086246,-0.147840,-0.609465,0.667012,1.218916,-0.170677,0.174552,0.522911,-0.030429,-0.099325,-0.040871,0.136985
0.204135,0.020754,-0.049492,0.055442,0.009342,-0.013681,0.331058,0.021068,0.066660,0.147071,0.216923,-0.101687,-0.148312,-0.412849,-0.324143,0.168843,-0.477630,0.088310,-0.140962,-0.618498,0.688228,1.214555,-0.225483,0.184767,0.555360,-0.026283,-0.089009,-0.054090,0.154279
0.204880,0.021964,-0.035265,0.054153,0.000709,-0.015376,0.332555,-0.000104,0.061816,0.150150,0.215516,-0.099818,-0.186029,-0.417827,-0.318753,0.166381,-0.466313,0.090093,-0.133363,-0.627902,0.710148,1.211353,-0.276600,0.194489,0.582906,-0.022156,-0.078110,-0.068118,0.170335
0.205914,0.025174,-0.019432,0.053153,-0.008489,-0.017154,0.329268,-0.024307,0.057484,0.156764,0.215141,-0.094783,-0.229859,-0.423861,-0.316022,0.164832,-0.452809,0.091245,-0.126264,-0.634216,0.729910,1.208402,-0.319228,0.201496,0.598807,-0.018445,-0.068188,-0.076697,0.185834
0.206313,0.028280,-0.003195,0.052301,-0.017785,-0.019259,0.325077,-0.049951,0.052455,0.163686,0.214582,-0.089176,-0.275827,-0.430624,-0.313268,0.164051,-0.439605,0.091444,-0.117523,-0.639356,0.749583,1.205915,-0.359428,0.207184,0.614482,-0.015242,-0.059793,-0.085201,0.197614
0.205442,0.031177,0.013852,0.051746,-0.027280,-0.022019,0.319081,-0.078476,0.046033,0.171222,0.213655,-0.082422,-0.326071,-0.438847,-0.310466,0.164808,-0.427001,0.089740,-0.105496,-0.642149,0.769078,1.204356,-0.394774,0.210235,0.629703,-0.013054,-0.054452,-0.093555,0.201959
0.204336,0.035667,0.030508,0.049870,-0.037122,-0.025925,0.310039,-0.107988,0.041418,0.179040,0.211847,-0.075215,-0.372244,-0.445708,-0.312488,0.167030,-0.416526,0.086973,-0.096962,-0.636823,0.784332,1.206885,-0.416205,0.209243,0.642762,-0.010342,-0.049267,-0.098043,0.202485
0.203113,0.040954,0.046968,0.047334,-0.047137,-0.030405,0.299475,-0.137993,0.037707,0.186999,0.209598,-0.067782,-0.416381,-0.451890,-0.316922,0.169984,-0.407115,0.083675,-0.090175,-0.627438,0.797466,1.211456,-0.430678,0.206231,0.654741,-0.007368,-0.044159,-0.100600,0.201102
0.203346,0.046427,0.060521,0.046485,-0.053887,-0.033078,0.286250,-0.161372,0.035884,0.198875,0.208768,-0.056589,-0.462122,-0.455982,-0.322213,0.173333,-0.397922,0.082138,-0.084591,-0.612225,0.801321,1.213620,-0.438856,0.196710,0.649466,-0.007110,-0.047575,-0.093222,0.188110
0.202886,0.051571,0.073589,0.046425,-0.059817,-0.036339,0.273208,-0.184218,0.034382,0.211660,0.208154,-0.045914,-0.506108,-0.460804,-0.327682,0.178012,-0.391397,0.079932,-0.080318,-0.595113,0.805394,1.216955,-0.445701,0.184535,0.646083,-0.006254,-0.051491,-0.086965,0.174642
0.201042,0.056054,0.085687,0.047942,-0.064107,-0.040779,0.260533,-0.205996,0.033523,0.226267,0.207972,-0.036277,-0.546586,-0.467086,-0.333509,0.185352,-0.390209,0.076391,-0.078667,-0.574203,0.809902,1.222633,-0.449879,0.167054,0.646484,-0.004200,-0.056405,-0.082950,0.160225
0.200236,0.062403,0.096697,0.049411,-0.067417,-0.042938,0.242636,-0.226549,0.034510,0.243020,0.208506,-0.025117,-0.585529,-0.473255,-0.340551,0.192926,-0.389002,0.074753,-0.079775,-0.550505,0.809583,1.227377,-0.452879,0.148203,0.639528,-0.002294,-0.062386,-0.077975,0.149065
0.199949,0.069685,0.107162,0.050854,-0.070235,-0.043955,0.222127,-0.246489,0.036422,0.260845,0.209398,-0.013195,-0.623704,-0.479368,-0.348201,0.200616,-0.387786,0.074068,-0.082262,-0.525414,0.806850,1.231655,-0.455290,0.128668,0.628893,-0.000462,-0.068899,-0.072521,0.139534
0.200056,0.074865,0.114273,0.052617,-0.072123,-0.045339,0.206172,-0.262723,0.037607,0.274546,0.214811,-0.002198,-0.661310,-0.483158,-0.354401,0.209125,-0.389385,0.072800,-0.083211,-0.502500,0.802375,1.235317,-0.460725,0.115904,0.623231,0.003366,-0.073309,-0.071768,0.134725
0.200150,0.079561,0.120789,0.055070,-0.073245,-0.046418,0.190664,-0.277295,0.039107,0.287658,0.221379,0.008600,-0.697869,-0.486078,-0.361795,0.218099,-0.391681,0.071628,-0.085334,-0.480059,0.797659,1.239276,-0.463590,0.104202,0.618699,0.008379,-0.077544,-0.071664,0.127240
0.200222,0.083288,0.126116,0.058904,-0.072835,-0.046887,0.176050,-0.288544,0.041236,0.299592,0.230258,0.018997,-0.732336,-0.487257,-0.371578,0.228005,-0.395372,0.070648,-0.089804,-0.458562,0.792463,1.243831,-0.461315,0.094625,0.616430,0.015764,-0.081429,-0.072858,0.114404
0.200342,0.086899,0.131688,0.064864,-0.072210,-0.047091,0.163803,-0.300067,0.043611,0.313404,0.238876,0.029063,-0.766182,-0.488770,-0.382256,0.237106,-0.398898,0.071657,-0.096268,-0.438894,0.788049,1.250634,-0.456495,0.087204,0.607448,0.024173,-0.081560,-0.070978,0.106880
0.200487,0.090452,0.137382,0.071887,-0.071477,-0.047162,0.152740,-0.311728,0.046109,0.328154,0.247363,0.038963,-0.799717,-0.490450,-0.393381,0.245804,-0.402341,0.073660,-0.103729,-0.420142,0.784026,1.258561,-0.450404,0.080863,0.595108,0.033093,-0.079814,-0.067561,0.102011
0.202691,0.093762,0.141474,0.077143,-0.071756,-0.047737,0.141315,-0.322381,0.048658,0.337289,0.252820,0.050743,-0.833628,-0.488781,-0.402554,0.255300,-0.408030,0.071781,-0.108419,-0.404982,0.781252,1.262856,-0.437177,0.077856,0.578646,0.038995,-0.078166,-0.067157,0.096104
0.204515,0.096281,0.144755,0.082452,-0.071005,-0.048083,0.129519,-0.329901,0.050645,0.346468,0.258346,0.062629,-0.868343,-0.487239,-0.410756,0.264437,-0.413358,0.070558,-0.112854,-0.392183,0.778882,1.266819,-0.423152,0.077035,0.559894,0.044684,-0.076409,-0.067086,0.090721
0.205580,0.097221,0.146413,0.087868,-0.068192,-0.047970,0.116979,-0.331153,0.051508,0.355732,0.264009,0.074728,-0.904667,-0.485951,-0.417019,0.272854,-0.417964,0.070647,-0.116782,-0.384103,0.777321,1.270118,-0.407530,0.080587,0.536564,0.049951,-0.074438,-0.067680,0.086388
0.205587,0.098905,0.146626,0.093989,-0.064914,-0.046815,0.103834,-0.332715,0.054134,0.366775,0.269265,0.086175,-0.936787,-0.485369,-0.425418,0.281042,-0.421323,0.071432,-0.121717,-0.378803,0.775920,1.272392,-0.383433,0.085818,0.512079,0.055504,-0.071878,-0.071814,0.077728
0.205065,0.100960,0.146115,0.100463,-0.061403,-0.045138,0.090387,-0.334432,0.057642,0.378707,0.274316,0.097295,-0.966804,-0.485139,-0.434883,0.289117,-0.424058,0.072564,-0.127155,-0.374892,0.774600,1.274153,-0.355098,0.091889,0.487018,0.061202,-0.069024,-0.077718,0.066905
0.202046,0.099854,0.143272,0.108386,-0.057837,-0.042589,0.081041,-0.336500,0.060611,0.389974,0.278763,0.108718,-0.992325,-0.488582,-0.443360,0.293043,-0.425838,0.073096,-0.131249,-0.374156,0.769007,1.273916,-0.330256,0.096905,0.462150,0.066053,-0.068973,-0.086807,0.052944
0.199487,0.098582,0.138670,0.116377,-0.053543,-0.039869,0.069753,-0.337512,0.065547,0.399888,0.282290,0.119488,-1.015199,-0.489763,-0.450145,0.296954,-0.431076,0.075536,-0.136508,-0.371759,0.759266,1.272025,-0.305948,0.099654,0.431953,0.069315,-0.070165,-0.094874,0.038112
0.197849,0.096981,0.130551,0.124505,-0.047794,-0.036806,0.054580,-0.336412,0.074417,0.407101,0.283974,0.128951,-1.032778,-0.486422,-0.453547,0.300833,-0.443226,0.081792,-0.144097,-0.366040,0.741228,1.266827,-0.282709,0.097866,0.391097,0.069397,-0.073843,-0.100895,0.021539
0.196328,0.095441,0.121899,0.130891,-0.044661,-0.032480,0.042422,-0.335926,0.079548,0.413652,0.287572,0.138385,-1.034147,-0.481262,-0.455510,0.299084,-0.456161,0.086636,-0.148714,-0.358255,0.720492,1.262395,-0.269386,0.091372,0.369351,0.068621,-0.078041,-0.104137,0.004393
0.194866,0.093931,0.112982,0.136405,-0.042837,-0.027524,0.031770,-0.335747,0.082810,0.419873,0.292127,0.147804,-1.027413,-0.475192,-0.456751,0.294520,-0.469489,0.090772,-0.151844,-0.349438,0.698408,1.258345,-0.261020,0.082524,0.357160,0.067417,-0.082499,-0.105989,-0.013038
0.196804,0.094301,0.102399,0.140646,-0.043427,-0.025082,0.025574,-0.340301,0.091463,0.419742,0.294145,0.153997,-1.009406,-0.459348,-0.458932,0.292051,-0.493048,0.095650,-0.157457,-0.337520,0.662869,1.250935,-0.253608,0.067011,0.351119,0.063252,-0.090784,-0.103344,-0.046034
0.198311,0.094257,0.088529,0.146529,-0.043783,-0.021153,0.022264,-0.344246,0.101674,0.419509,0.295499,0.159914,-0.981787,-0.440477,-0.459459,0.285785,-0.519523,0.102249,-0.164096,-0.323271,0.617504,1.244930,-0.255950,0.047398,0.340764,0.058837,-0.102234,-0.098014,-0.089031
0.198958,0.093385,0.068083,0.155694,-0.043670,-0.014251,0.024726,-0.346974,0.115004,0.419073,0.295522,0.165282,-0.934945,-0.415551,-0.456679,0.271925,-0.551830,0.112288,-0.172790,-0.304358,0.552483,1.241736,-0.277802,0.019586,0.321779,0.053920,-0.120014,-0.087313,-0.152032
0.200759,0.090777,0.049356,0.162371,-0.045496,-0.011275,0.025975,-0.347304,0.125158,0.418105,0.298735,0.170922,-0.892548,-0.398026,-0.451250,0.265227,-0.579677,0.118842,-0.177114,-0.298527,0.492683,1.232285,-0.289096,-0.002594,0.308007,0.045510,-0.132619,-0.081658,-0.213947
0.203136,0.087303,0.031490,0.167804,-0.048291,-0.010261,0.026619,-0.346434,0.133724,0.416870,0.303543,0.176698,-0.852375,-0.384203,-0.444497,0.262111,-0.605294,0.123652,-0.179253,-0.299236,0.435492,1.219705,-0.295111,-0.021957,0.296841,0.035354,-0.142636,-0.078527,-0.275319
0.205646,0.080241,0.023897,0.170223,-0.052656,-0.013401,0.025280,-0.348903,0.136333,0.409996,0.307942,0.182501,-0.830038,-0.371350,-0.441749,0.268495,-0.628685,0.123318,-0.176920,-0.309314,0.396630,1.209496,-0.265754,-0.031612,0.283959,0.029033,-0.141869,-0.070804,-0.324192
0.207398,0.072278,0.017125,0.172308,-0.057572,-0.017334,0.025409,-0.350747,0.138070,0.403073,0.312070,0.188739,-0.812967,-0.358199,-0.439789,0.275972,-0.653692,0.123051,-0.174656,-0.320279,0.361182,1.199779,-0.225745,-0.040511,0.267485,0.023451,-0.138469,-0.063597,-0.372374
0.207633,0.062515,0.011997,0.173725,-0.063591,-0.022852,0.028475,-0.351345,0.138062,0.396052,0.315655,0.195848,-0.806427,-0.344449,-0.439402,0.285636,-0.681928,0.122919,-0.172528,-0.333018,0.332565,1.191048,-0.164432,-0.047901,0.243826,0.019349,-0.129805,-0.057423,-0.419173
0.207029,0.053240,0.009260,0.174439,-0.069072,-0.027508,0.029610,-0.353269,0.137430,0.390678,0.318511,0.199990,-0.806237,-0.331235,-0.436717,0.295310,-0.708945,0.121567,-0.169449,-0.346871,0.311434,1.184861,-0.087511,-0.053317,0.226819,0.017186,-0.118665,-0.053739,-0.457291
0.206006,0.044209,0.007718,0.174802,-0.074285,-0.031733,0.029779,-0.355854,0.136487,0.386126,0.321002,0.202648,-0.809222,-0.318290,-0.432881,0.304990,-0.735352,0.119604,-0.165894,-0.361281,0.294047,1.179946,-0.002786,-0.057747,0.213139,0.015993,-0.106287,-0.051300,-0.491067
0.204597,0.036965,0.009828,0.176296,-0.075927,-0.034129,0.027225,-0.354800,0.135134,0.382903,0.320048,0.201759,-0.823916,-0.308183,-0.425872,0.315871,-0.760403,0.117682,-0.160170,-0.376321,0.287470,1.179856,0.096825,-0.061967,0.204861,0.015906,-0.092041,-0.046907,-0.520290
0.202961,0.030080,0.013537,0.177838,-0.077630,-0.036908,0.025183,-0.353307,0.133955,0.380176,0.319199,0.200250,-0.843222,-0.299835,-0.419520,0.328001,-0.784907,0.116001,-0.154688,-0.391524,0.286182,1.182114,0.205569,-0.064634,0.196161,0.016319,-0.075278,-0.040001,-0.547931
0.200869,0.023915,0.020448,0.179476,-0.079455,-0.040451,0.024167,-0.350933,0.133126,0.378439,0.318561,0.197503,-0.871754,-0.295001,-0.414486,0.342630,-0.808319,0.114799,-0.149688,-0.407054,0.295474,1.189066,0.332578,-0.064195,0.186618,0.017730,-0.053479,-0.028066,-0.572407
0.198675,0.017776,0.028940,0.180206,-0.080907,-0.043931,0.023028,-0.347972,0.133209,0.377196,0.318203,0.193377,-0.907240,-0.291562,-0.410045,0.357362,-0.827071,0.113103,-0.144149,-0.422051,0.313934,1.199143,0.461606,-0.063133,0.177196,0.017577,-0.034190,-0.017903,-0.588796
0.196430,0.011649,0.038224,0.180483,-0.082173,-0.047381,0.021827,-0.344717,0.133748,0.376199,0.317984,0.188562,-0.946204,-0.288821,-0.405900,0.372143,-0.843492,0.111160,-0.138340,-0.436783,0.336977,1.210783,0.591644,-0.061759,0.167835,0.016642,-0.016156,-0.008626,-0.601142
0.193802,0.005391,0.044118,0.181323,-0.079491,-0.047651,0.013779,-0.335911,0.135094,0.377067,0.319569,0.181639,-0.988234,-0.292671,-0.401847,0.382379,-0.854698,0.109242,-0.132409,-0.445848,0.363410,1.220968,0.707657,-0.063775,0.177148,0.018037,-0.004565,-0.002837,-0.589862
0.191358,0.000156,0.048773,0.182459,-0.077681,-0.046697,0.005807,-0.331283,0.137138,0.378380,0.321763,0.174356,-1.029743,-0.295980,-0.397022,0.391010,-0.864621,0.107014,-0.127087,-0.453285,0.388456,1.230851,0.815573,-0.065025,0.186718,0.019627,0.004540,0.001617,-0.580411
0.189282,-0.003033,0.050951,0.184183,-0.077616,-0.043297,-0.002013,-0.335011,0.140581,0.380581,0.325174,0.166357,-1.070208,-0.298208,-0.390657,0.396434,-0.871976,0.104167,-0.122983,-0.457465,0.410731,1.240131,0.907299,-0.064743,0.196803,0.021607,0.008674,0.003399,-0.574621
0.188270,-0.005215,0.052659,0.184579,-0.078898,-0.039700,-0.009210,-0.339506,0.145245,0.382227,0.327991,0.159822,-1.107532,-0.297639,-0.386530,0.399414,-0.876547,0.101081,-0.121068,-0.459679,0.432087,1.248017,0.982726,-0.062247,0.199639,0.021925,0.012347,0.002647,-0.562354
0.187788,-0.006895,0.054131,0.184310,-0.080853,-0.036004,-0.016097,-0.344386,0.150518,0.383596,0.330510,0.154020,-1.143284,-0.295670,-0.383522,0.401172,-0.879725,0.097876,-0.120249,-0.460912,0.452984,1.255207,1.050005,-0.058643,0.198852,0.021413,0.015790,0.000628,-0.546849
0.186966,-0.010100,0.055385,0.183983,-0.083622,-0.033624,-0.019965,-0.348300,0.151844,0.385329,0.336558,0.154924,-1.162954,-0.294615,-0.382771,0.402398,-0.881732,0.094857,-0.118282,-0.461377,0.471674,1.260214,1.094507,-0.053979,0.189085,0.020807,0.023089,-0.000047,-0.534069
0.186653,-0.013296,0.057280,0.183365,-0.085745,-0.032168,-0.024003,-0.350814,0.153419,0.386624,0.342175,0.156278,-1.183152,-0.293003,-0.382665,0.404617,-0.883490,0.092505,-0.116736,-0.461561,0.492218,1.265502,1.134439,-0.047641,0.176645,0.020173,0.029500,-0.000061,-0.519021
0.187358,-0.016472,0.060455,0.182166,-0.086575,-0.032562,-0.028379,-0.350525,0.155490,0.387041,0.346933,0.158531,-1.204405,-0.290277,-0.383850,0.408825,-0.884747,0.091488,-0.116031,-0.461179,0.516471,1.271355,1.165233,-0.037952,0.158857,0.019482,0.034137,0.001248,-0.499438
0.188376,-0.018090,0.062271,0.181409,-0.087952,-0.030599,-0.031587,-0.354777,0.158231,0.387638,0.350692,0.161238,-1.223255,-0.286362,-0.385332,0.410513,-0.885035,0.090998,-0.116397,-0.458257,0.536373,1.277510,1.186501,-0.030261,0.143632,0.019598,0.036224,0.000038,-0.484403
0.189552,-0.018928,0.063409,0.180873,-0.089601,-0.027458,-0.034209,-0.361300,0.161307,0.388324,0.353953,0.164171,-1.240904,-0.281852,-0.386962,0.410942,-0.884837,0.090771,-0.117298,-0.454065,0.554099,1.283815,1.203005,-0.023569,0.129689,0.020118,0.037037,-0.002430,-0.471642
0.190784,-0.017995,0.064590,0.181048,-0.090328,-0.024325,-0.034823,-0.366640,0.164817,0.390959,0.356806,0.168109,-1.254903,-0.278746,-0.388077,0.411786,-0.883752,0.091531,-0.119100,-0.447929,0.571329,1.290679,1.207790,-0.014377,0.119426,0.021684,0.037954,-0.002218,-0.455184
0.191808,-0.016861,0.065584,0.181575,-0.090862,-0.020774,-0.034833,-0.372203,0.168615,0.393873,0.359021,0.172590,-1.267052,-0.275971,-0.389619,0.411687,-0.882611,0.092696,-0.120389,-0.440854,0.586884,1.297154,1.208491,-0.006295,0.109289,0.022950,0.038239,-0.002487,-0.442486
0.192417,-0.015324,0.066203,0.182809,-0.091011,-0.016388,-0.033638,-0.378213,0.172991,0.397346,0.359959,0.178155,-1.275499,-0.273857,-0.392016,0.409704,-0.881359,0.094671,-0.120648,-0.431900,0.599087,1.302852,1.201025,-0.000432,0.099402,0.023618,0.037260,-0.003720,-0.437308
0.192668,-0.014025,0.066233,0.183019,-0.091093,-0.012076,-0.033705,-0.383050,0.176723,0.399996,0.361182,0.183370,-1.279796,-0.272139,-0.394015,0.406670,-0.879649,0.097301,-0.121736,-0.421413,0.609680,1.308609,1.183386,0.006387,0.091428,0.025044,0.034860,-0.003759,-0.431012
0.192741,-0.012844,0.065969,0.182718,-0.091142,-0.007799,-0.034403,-0.387299,0.180132,0.402234,0.362549,0.188410,-1.282016,-0.270620,-0.395816,0.403111,-0.877710,0.100259,-0.123237,-0.410159,0.619468,1.314397,1.160660,0.013683,0.084411,0.026849,0.031749,-0.003202,-0.424158
0.194696,-0.009421,0.066686,0.181547,-0.090675,-0.005122,-0.031027,-0.388800,0.184515,0.404095,0.361595,0.194084,-1.276927,-0.270098,-0.400938,0.399725,-0.872458,0.102446,-0.125214,-0.398940,0.631101,1.318661,1.129208,0.019418,0.072892,0.028123,0.030616,0.001003,-0.416778
0.196579,-0.005725,0.066530,0.179657,-0.090891,-0.001145,-0.028190,-0.391472,0.188845,0.404675,0.360591,0.198740,-1.267531,-0.271147,-0.405979,0.393430,-0.867103,0.104807,-0.127008,-0.385636,0.637899,1.323243,1.091441,0.022758,0.068674,0.029608,0.026518,0.004306,-0.413083
0.198320,-0.001484,0.064631,0.176330,-0.092470,0.005432,-0.026429,-0.396486,0.193071,0.402690,0.359491,0.201360,-1.249519,-0.275340,-0.410857,0.381314,-0.861541,0.107516,-0.128438,-0.368163,0.635028,1.328464,1.041042,0.021306,0.079057,0.031517,0.016491,0.005807,-0.416760
0.198106,0.002024,0.063128,0.173143,-0.092242,0.010889,-0.025594,-0.396999,0.196649,0.402608,0.356920,0.202606,-1.226362,-0.281763,-0.416174,0.369716,-0.854205,0.110930,-0.131194,-0.351049,0.630908,1.332805,0.994592,0.017888,0.088549,0.033955,0.010341,0.007054,-0.409587
0.196914,0.005164,0.061824,0.170027,-0.091111,0.015786,-0.025220,-0.395262,0.199904,0.403478,0.353613,0.203164,-1.200633,-0.289303,-0.421711,0.358377,-0.845980,0.114696,-0.134613,-0.334115,0.626164,1.336705,0.950118,0.013487,0.097595,0.036656,0.006129,0.008174,-0.396989
0.200084,0.009932,0.056380,0.166092,-0.091638,0.017222,-0.015166,-0.392351,0.207283,0.397112,0.347531,0.197111,-1.151540,-0.297728,-0.424905,0.342229,-0.836582,0.115831,-0.137972,-0.311242,0.609710,1.341969,0.875839,0.000820,0.121100,0.037857,-0.003999,0.009754,-0.384125
0.202642,0.013445,0.051583,0.161938,-0.092946,0.017997,-0.004729,-0.389400,0.213061,0.390674,0.342937,0.190496,-1.098664,-0.307938,-0.426329,0.326468,-0.826942,0.116754,-0.141906,-0.288520,0.592750,1.346798,0.801893,-0.011619,0.146483,0.038627,-0.015002,0.009193,-0.368096
0.203974,0.014450,0.048077,0.157348,-0.095817,0.017451,0.006471,-0.386369,0.215635,0.384091,0.341317,0.182757,-1.038222,-0.321716,-0.424210,0.311482,-0.816818,0.117254,-0.146988,-0.266101,0.574777,1.350752,0.728611,-0.023601,0.175621,0.038536,-0.027755,0.004351,-0.345737
0.203118,0.012415,0.044718,0.152563,-0.097132,0.016110,0.017195,-0.378165,0.216388,0.379548,0.340955,0.174856,-0.971454,-0.336897,-0.422919,0.296030,-0.799654,0.119526,-0.152440,-0.247088,0.556136,1.354886,0.660118,-0.035580,0.211636,0.038976,-0.039235,-0.001661,-0.317181
0.201168,0.008860,0.041431,0.147683,-0.097668,0.014372,0.027680,-0.367375,0.216232,0.376025,0.341221,0.166872,-0.901524,-0.352780,-0.422043,0.280346,-0.778970,0.122683,-0.158076,-0.229778,0.537160,1.359110,0.594018,-0.047559,0.251089,0.039682,-0.050079,-0.008257,-0.285526
0.198015,0.007791,0.041723,0.142124,-0.099296,0.012731,0.032410,-0.363382,0.214544,0.375982,0.341546,0.157034,-0.831211,-0.369687,-0.420227,0.269434,-0.748865,0.123550,-0.163505,-0.220054,0.523087,1.362862,0.552098,-0.055607,0.272404,0.038498,-0.054101,-0.014392,-0.257139
0.194259,0.006571,0.043229,0.136634,-0.100521,0.010503,0.038416,-0.357976,0.212268,0.375955,0.342350,0.145448,-0.758854,-0.387263,-0.417928,0.258389,-0.716530,0.124126,-0.169303,-0.211596,0.513984,1.367604,0.513947,-0.060590,0.289653,0.038103,-0.054315,-0.020205,-0.217901
0.189301,0.005048,0.047163,0.131280,-0.100943,0.007101,0.046972,-0.349745,0.208815,0.375961,0.344113,0.130365,-0.682409,-0.406174,-0.414661,0.247076,-0.679735,0.124118,-0.175838,-0.205669,0.514818,1.374328,0.483334,-0.059445,0.298768,0.039288,-0.046911,-0.025376,-0.156964
0.186682,0.005616,0.050326,0.125804,-0.100765,0.005077,0.054302,-0.338188,0.205087,0.372438,0.342448,0.117050,-0.612324,-0.422424,-0.409912,0.237572,-0.640192,0.122452,-0.179233,-0.206705,0.517977,1.378541,0.483765,-0.056779,0.279152,0.038346,-0.032950,-0.029625,-0.105802
0.185233,0.007228,0.053104,0.120268,-0.100287,0.003744,0.061017,-0.324968,0.201221,0.367150,0.339067,0.104618,-0.545420,-0.437344,-0.404423,0.228972,-0.599275,0.119958,-0.181059,-0.211222,0.522298,1.381500,0.499718,-0.053353,0.245170,0.036340,-0.015710,-0.033413,-0.059528
0.183281,0.009648,0.054795,0.117296,-0.098441,0.005984,0.069007,-0.317236,0.194981,0.361543,0.335016,0.087450,-0.483621,-0.447102,-0.396750,0.222214,-0.558279,0.114886,-0.181080,-0.218813,0.531802,1.387747,0.545822,-0.056154,0.196359,0.034289,-0.004046,-0.035456,-0.024410
0.180325,0.011261,0.055555,0.114692,-0.096433,0.008844,0.077621,-0.308492,0.188311,0.355825,0.331803,0.068508,-0.422900,-0.456728,-0.388936,0.214833,-0.514613,0.109082,-0.179644,-0.228728,0.542863,1.393453,0.598698,-0.056612,0.152398,0.029672,0.003725,-0.037167,0.008242
0.175360,0.011260,0.054454,0.112822,-0.094100,0.012943,0.087480,-0.297725,0.180777,0.349882,0.330269,0.046019,-0.364333,-0.466089,-0.380841,0.206208,-0.465608,0.101815,-0.175292,-0.243295,0.557036,1.398075,0.665118,-0.052385,0.118136,0.019924,0.003708,-0.038214,0.035959
0.170982,0.009811,0.050292,0.111256,-0.091830,0.016298,0.095737,-0.286454,0.172288,0.345282,0.329418,0.025495,-0.313359,-0.475179,-0.374516,0.200207,-0.421108,0.095479,-0.168788,-0.257951,0.564553,1.402915,0.744216,-0.052019,0.090556,0.009087,0.000735,-0.041383,0.049186
0.166897,0.007637,0.044599,0.109841,-0.089591,0.019281,0.103192,-0.274931,0.163320,0.341352,0.328908,0.005956,-0.266183,-0.484134,-0.369075,0.195517,-0.378859,0.089608,-0.161207,-0.272652,0.568744,1.407863,0.829653,-0.053585,0.066316,-0.002293,-0.003718,-0.045611,0.055166
0.170205,0.005947,0.035315,0.107509,-0.089300,0.022181,0.103865,-0.270707,0.156476,0.334040,0.333068,-0.017118,-0.224827,-0.493026,-0.365503,0.193418,-0.342049,0.084735,-0.152836,-0.286862,0.564755,1.406948,0.920928,-0.051401,0.038620,-0.007350,-0.003272,-0.043028,0.064907
0.173837,0.001217,0.023670,0.103878,-0.087996,0.024324,0.105367,-0.259598,0.149285,0.323040,0.340757,-0.041524,-0.183507,-0.500673,-0.361014,0.193314,-0.308127,0.079931,-0.142367,-0.300698,0.554498,1.406159,1.015446,-0.044784,0.016221,-0.010986,-0.001573,-0.046313,0.076812
0.178117,-0.009593,0.007303,0.097648,-0.084668,0.024952,0.108528,-0.234716,0.141400,0.304666,0.355501,-0.068594,-0.142262,-0.505833,-0.354691,0.197202,-0.279978,0.075266,-0.127700,-0.313783,0.531704,1.405623,1.116452,-0.029302,0.004415,-0.011779,0.002634,-0.061334,0.093045
0.182133,-0.018569,-0.005806,0.093443,-0.084627,0.023156,0.113761,-0.214797,0.136346,0.291340,0.368136,-0.091052,-0.105125,-0.510487,-0.353747,0.204346,-0.264487,0.071147,-0.120075,-0.320361,0.513017,1.406009,1.180219,-0.018980,-0.005444,-0.013282,0.004770,-0.061226,0.101528
0.186018,-0.026628,-0.017287,0.090250,-0.086232,0.020149,0.120031,-0.197360,0.132708,0.280537,0.379715,-0.111203,-0.070042,-0.514887,-0.355493,0.213118,-0.255323,0.067301,-0.115969,-0.323685,0.496384,1.406855,1.225366,-0.011238,-0.014331,-0.015141,0.005869,-0.053553,0.106135
0.191040,-0.032995,-0.025919,0.087826,-0.088439,0.017490,0.131572,-0.185183,0.132567,0.272678,0.387940,-0.133086,-0.036512,-0.519423,-0.357700,0.227480,-0.252527,0.063875,-0.113324,-0.320657,0.480145,1.411884,1.254860,-0.013061,-0.016187,-0.015783,0.005118,-0.045449,0.113855
0.196144,-0.039652,-0.034666,0.085233,-0.090730,0.014694,0.144115,-0.172535,0.133054,0.265314,0.395050,-0.154960,-0.004559,-0.523167,-0.358729,0.242877,-0.251368,0.060734,-0.111030,-0.317455,0.464614,1.417617,1.279816,-0.015154,-0.016288,-0.016417,0.004324,-0.034758,0.119858
0.201415,-0.046890,-0.043643,0.082303,-0.093186,0.011625,0.158661,-0.158945,0.134797,0.258940,0.399929,-0.176818,0.024238,-0.525328,-0.357400,0.260344,-0.253482,0.058161,-0.109436,-0.313908,0.450497,1.424755,1.295698,-0.017788,-0.012879,-0.017035,0.003444,-0.018893,0.122428
0.206198,-0.053681,-0.050497,0.078525,-0.097334,0.008485,0.171871,-0.150224,0.138278,0.254117,0.403015,-0.198011,0.050576,-0.526831,-0.355829,0.278731,-0.256976,0.056049,-0.109786,-0.307653,0.437602,1.434055,1.305587,-0.020940,-0.010332,-0.016196,0.003650,-0.005771,0.127368
0.210739,-0.060248,-0.056291,0.074323,-0.102326,0.005310,0.184413,-0.143937,0.142628,0.250067,0.405204,-0.218873,0.075683,-0.528006,-0.354138,0.297578,-0.261161,0.054168,-0.111109,-0.300043,0.425319,1.444437,1.312479,-0.024352,-0.008216,-0.014628,0.004399,0.005980,0.133494
0.214181,-0.067074,-0.063681,0.070832,-0.105845,0.002741,0.197411,-0.139032,0.147937,0.247118,0.403918,-0.237808,0.095150,-0.526992,-0.351065,0.315836,-0.266250,0.052313,-0.112156,-0.295215,0.415834,1.452181,1.312388,-0.028875,-0.003683,-0.013099,0.004523,0.021263,0.133851
0.217551,-0.073568,-0.070887,0.067391,-0.108873,0.000294,0.209610,-0.134404,0.153081,0.243377,0.402474,-0.255824,0.112663,-0.525615,-0.348297,0.333171,-0.271033,0.050575,-0.113313,-0.290350,0.406425,1.459696,1.311819,-0.032247,0.000437,-0.011370,0.004864,0.034672,0.134374
0.220776,-0.079402,-0.077726,0.064047,-0.110922,-0.001908,0.220210,-0.130328,0.157891,0.238053,0.400714,-0.272004,0.126268,-0.523508,-0.346139,0.348662,-0.275202,0.049069,-0.114688,-0.285413,0.397167,1.466754,1.310292,-0.033318,0.003731,-0.009243,0.005640,0.044331,0.135228
0.223571,-0.084117,-0.084036,0.060939,-0.112839,-0.003675,0.229102,-0.129073,0.162617,0.231484,0.398166,-0.285633,0.136329,-0.520774,-0.343329,0.360773,-0.277642,0.048010,-0.115374,-0.281504,0.388618,1.472545,1.309386,-0.034431,0.006398,-0.007403,0.006812,0.049201,0.135471
0.226151,-0.088274,-0.090081,0.057949,-0.114690,-0.005226,0.237139,-0.129229,0.167300,0.224293,0.395224,-0.297986,0.144618,-0.517725,-0.340191,0.371194,-0.279217,0.047173,-0.115717,-0.278110,0.380423,1.477703,1.308791,-0.035564,0.008752,-0.005707,0.008182,0.051676,0.135409
0.228738,-0.092011,-0.095325,0.055168,-0.115565,-0.006380,0.245295,-0.129621,0.171378,0.216383,0.394053,-0.304868,0.146842,-0.514095,-0.339481,0.376351,-0.278284,0.047088,-0.115959,-0.277880,0.373476,1.479525,1.308949,-0.034494,0.010685,-0.005666,0.008939,0.048921,0.132902
0.230747,-0.095455,-0.100250,0.052767,-0.115755,-0.007342,0.252732,-0.130752,0.174626,0.208327,0.393527,-0.309800,0.147150,-0.509820,-0.339245,0.379388,-0.276676,0.046785,-0.116142,-0.278500,0.366940,1.479975,1.309593,-0.033094,0.012800,-0.006180,0.009375,0.045637,0.129673
0.231600,-0.098315,-0.104538,0.051126,-0.114575,-0.007919,0.258732,-0.133361,0.176211,0.199976,0.394289,-0.310831,0.143628,-0.504255,-0.339958,0.378187,-0.273718,0.046045,-0.116205,-0.280820,0.361227,1.477679,1.311208,-0.031036,0.015278,-0.007803,0.009167,0.041295,0.124999
0.232837,-0.100554,-0.108103,0.049750,-0.112880,-0.008152,0.264066,-0.136269,0.176704,0.190792,0.396161,-0.308485,0.137618,-0.498239,-0.342373,0.372586,-0.269478,0.046005,-0.116057,-0.284911,0.356756,1.473675,1.313123,-0.028587,0.018909,-0.009655,0.008884,0.036699,0.120067
0.234267,-0.102481,-0.111305,0.048505,-0.110929,-0.008213,0.269067,-0.139327,0.176652,0.181190,0.398587,-0.304450,0.130364,-0.491997,-0.345640,0.364786,-0.264595,0.046314,-0.115802,-0.289886,0.352906,1.468815,1.315189,-0.025943,0.023116,-0.011623,0.008562,0.031976,0.115005
0.235949,-0.103735,-0.113988,0.048268,-0.106790,-0.007981,0.275015,-0.137089,0.174456,0.172558,0.402971,-0.296758,0.119309,-0.485851,-0.348769,0.350097,-0.258094,0.047438,-0.114564,-0.298504,0.351286,1.460194,1.317390,-0.023151,0.028608,-0.015042,0.007837,0.025669,0.109731
0.237359,-0.104552,-0.116643,0.048150,-0.101583,-0.007174,0.279608,-0.134000,0.171652,0.163680,0.407520,-0.288098,0.107264,-0.479458,-0.351951,0.334394,-0.251771,0.048208,-0.113515,-0.309376,0.351146,1.450473,1.318093,-0.018369,0.034033,-0.018452,0.006369,0.017590,0.103948
0.238228,-0.104494,-0.119240,0.048272,-0.094240,-0.005218,0.281488,-0.129206,0.167632,0.154309,0.412399,-0.277502,0.093241,-0.472571,-0.355242,0.316667,-0.245801,0.048273,-0.112843,-0.324756,0.353968,1.438554,1.315802,-0.009607,0.039325,-0.021842,0.003414,0.005968,0.097149
0.239265,-0.101471,-0.121789,0.049801,-0.087338,-0.002738,0.284766,-0.126601,0.163363,0.147367,0.416083,-0.266865,0.079730,-0.467445,-0.358122,0.297335,-0.240018,0.048257,-0.112420,-0.343770,0.359518,1.424960,1.310894,-0.000264,0.047005,-0.024795,0.000449,-0.005853,0.091592
0.240385,-0.096966,-0.124314,0.052034,-0.080657,0.000004,0.288742,-0.125092,0.158970,0.141639,0.419168,-0.256207,0.066474,-0.463200,-0.360798,0.277201,-0.234327,0.048200,-0.112122,-0.364601,0.366432,1.410529,1.304677,0.009371,0.055879,-0.027527,-0.002519,-0.017774,0.086654
0.242131,-0.090212,-0.126690,0.054573,-0.072548,0.002716,0.291139,-0.120640,0.153929,0.137338,0.419312,-0.247564,0.053848,-0.457709,-0.364220,0.256373,-0.229901,0.048505,-0.112025,-0.389290,0.375772,1.394903,1.300177,0.021677,0.058809,-0.029041,-0.002129,-0.031341,0.086596
0.244070,-0.082692,-0.128811,0.056575,-0.064692,0.005270,0.292595,-0.115756,0.148801,0.133029,0.419051,-0.239312,0.040981,-0.452139,-0.366851,0.236150,-0.227049,0.049026,-0.112588,-0.415902,0.386069,1.378497,1.294999,0.035934,0.059932,-0.030988,-0.002167,-0.044032,0.086273
0.246397,-0.073639,-0.130424,0.057503,-0.057344,0.007507,0.292168,-0.110005,0.143500,0.128706,0.417980,-0.231845,0.027634,-0.446410,-0.367897,0.217134,-0.227344,0.049980,-0.114470,-0.446357,0.398280,1.360531,1.288467,0.054093,0.057444,-0.033802,-0.003060,-0.054969,0.085419
0.247757,-0.062884,-0.133407,0.059649,-0.049430,0.010011,0.292421,-0.103702,0.138804,0.126350,0.414112,-0.225754,0.015297,-0.440200,-0.369310,0.199746,-0.229343,0.049889,-0.117511,-0.480227,0.410770,1.341485,1.279355,0.073021,0.055981,-0.036532,-0.004969,-0.067389,0.084554
0.248634,-0.051278,-0.137075,0.062404,-0.041235,0.012650,0.293014,-0.097123,0.134411,0.124979,0.408846,-0.220351,0.003467,-0.433748,-0.370908,0.183173,-0.232195,0.049277,-0.121132,-0.515804,0.423398,1.321900,1.268953,0.092334,0.055031,-0.039221,-0.007386,-0.080551,0.083683
0.246984,-0.040602,-0.139758,0.064892,-0.035090,0.015412,0.295277,-0.093356,0.129546,0.125836,0.403523,-0.218696,-0.006536,-0.427675,-0.371258,0.169841,-0.237122,0.047466,-0.124396,-0.553723,0.439019,1.302728,1.259318,0.113782,0.053557,-0.041771,-0.010315,-0.095196,0.087405
0.245041,-0.029781,-0.141761,0.066936,-0.028658,0.017608,0.297877,-0.086995,0.124340,0.126795,0.397806,-0.216878,-0.015403,-0.421257,-0.370638,0.157524,-0.242782,0.045687,-0.126983,-0.588679,0.453624,1.284415,1.247442,0.131643,0.053904,-0.044971,-0.014052,-0.107577,0.091494
0.242513,-0.018666,-0.142406,0.068094,-0.021650,0.018668,0.301150,-0.075449,0.118448,0.127960,0.391303,-0.214736,-0.021998,-0.414154,-0.368077,0.147238,-0.249905,0.043967,-0.128216,-0.617711,0.466197,1.267818,1.231085,0.142330,0.057895,-0.049471,-0.019404,-0.115430,0.096318
0.238745,-0.008143,-0.140798,0.069510,-0.016533,0.020153,0.301261,-0.069953,0.113028,0.130951,0.383070,-0.212258,-0.026743,-0.409036,-0.364704,0.139841,-0.257628,0.042688,-0.128837,-0.641864,0.477687,1.250345,1.213740,0.150356,0.060369,-0.054663,-0.025063,-0.124778,0.102501
0.234358,0.002084,-0.138063,0.071053,-0.012360,0.021850,0.299791,-0.067481,0.107843,0.134855,0.373971,-0.209612,-0.030564,-0.404910,-0.360924,0.133888,-0.265651,0.041629,-0.129151,-0.663579,0.488637,1.232434,1.195902,0.157052,0.062085,-0.060200,-0.030874,-0.134875,0.109364
0.230452,0.011453,-0.136921,0.074230,-0.008294,0.023529,0.300925,-0.066868,0.105303,0.145109,0.364013,-0.206160,-0.032509,-0.403608,-0.358087,0.131276,-0.273924,0.042580,-0.130028,-0.679054,0.493477,1.213200,1.178632,0.154370,0.064131,-0.066123,-0.034437,-0.140752,0.113662
0.225709,0.020773,-0.134796,0.078338,-0.003274,0.025543,0.302295,-0.064133,0.103152,0.157302,0.354198,-0.202391,-0.034162,-0.403083,-0.355331,0.130028,-0.282136,0.043388,-0.131671,-0.691383,0.498110,1.196861,1.160962,0.150426,0.066033,-0.070510,-0.037970,-0.144166,0.116730
0.219290,0.029997,-0.130708,0.084310,0.003653,0.028224,0.304137,-0.057154,0.101783,0.173372,0.344669,-0.197988,-0.035227,-0.404114,-0.352740,0.131506,-0.290229,0.043911,-0.134844,-0.697419,0.502333,1.186308,1.142492,0.143957,0.067647,-0.071824,-0.041441,-0.142655,0.117336
0.212149,0.037603,-0.127218,0.090801,0.009762,0.030652,0.307251,-0.050488,0.101477,0.190959,0.336378,-0.193614,-0.037162,-0.407149,-0.350553,0.134564,-0.298687,0.045870,-0.137431,-0.701408,0.506845,1.177853,1.122748,0.140090,0.068745,-0.072199,-0.043870,-0.138426,0.116633
0.204646,0.044400,-0.124028,0.097551,0.015462,0.032952,0.311001,-0.043980,0.101705,0.209303,0.328707,-0.189254,-0.039531,-0.411187,-0.348568,0.138411,-0.307327,0.048546,-0.139726,-0.704373,0.511502,1.170445,1.102367,0.137524,0.069586,-0.072103,-0.045778,-0.132837,0.115276
0.195091,0.050165,-0.120594,0.102237,0.019859,0.035061,0.308901,-0.037821,0.103522,0.232574,0.324362,-0.185235,-0.040912,-0.417220,-0.349499,0.143847,-0.315383,0.049879,-0.144135,-0.700784,0.515500,1.169150,1.081592,0.133495,0.073565,-0.069428,-0.047026,-0.125220,0.112143
0.184329,0.055354,-0.116988,0.106924,0.023894,0.037055,0.306412,-0.031629,0.105991,0.258509,0.321611,-0.181150,-0.042238,-0.423820,-0.350957,0.149408,-0.323193,0.051172,-0.148902,-0.694836,0.518844,1.168786,1.060395,0.127285,0.077794,-0.066359,-0.048253,-0.118944,0.109281
0.171155,0.059393,-0.113037,0.111613,0.027205,0.038818,0.303147,-0.025370,0.109767,0.289772,0.322047,-0.176937,-0.043454,-0.431555,-0.353469,0.155219,-0.330513,0.052386,-0.154386,-0.684171,0.520877,1.170281,1.038356,0.116714,0.082525,-0.062501,-0.049440,-0.115351,0.106964
0.155485,0.062710,-0.109277,0.115100,0.028473,0.040258,0.298249,-0.020768,0.114322,0.324728,0.322824,-0.172402,-0.045420,-0.440541,-0.355628,0.161148,-0.337584,0.052941,-0.157348,-0.670960,0.521964,1.173229,1.016443,0.102343,0.090929,-0.058231,-0.050317,-0.110823,0.101135
0.138569,0.065665,-0.105613,0.117985,0.028719,0.041537,0.292534,-0.016993,0.119267,0.361531,0.323770,-0.167707,-0.047762,-0.450152,-0.357611,0.167138,-0.344531,0.053168,-0.159048,-0.656477,0.522578,1.176904,0.994592,0.086074,0.101168,-0.053753,-0.051039,-0.105826,0.093551
0.118993,0.067650,-0.102353,0.123520,0.028727,0.042821,0.289160,-0.013825,0.125657,0.404826,0.326465,-0.162607,-0.050414,-0.461318,-0.362612,0.172966,-0.349777,0.056218,-0.163413,-0.639088,0.521702,1.179283,0.970918,0.064054,0.115180,-0.047995,-0.050046,-0.098652,0.085402
0.098352,0.069008,-0.099162,0.129397,0.028668,0.043942,0.286054,-0.010887,0.132131,0.449635,0.329748,-0.157405,-0.053009,-0.472847,-0.368105,0.178300,-0.354808,0.059354,-0.168044,-0.621289,0.520508,1.179341,0.945212,0.040043,0.130910,-0.042431,-0.048890,-0.092407,0.077576
0.075583,0.069113,-0.096111,0.135959,0.028474,0.044739,0.283483,-0.008409,0.138773,0.497473,0.334207,-0.151999,-0.055487,-0.485099,-0.374583,0.182645,-0.359406,0.062663,-0.173204,-0.602672,0.518681,1.174757,0.915442,0.012052,0.150076,-0.037255,-0.047410,-0.088016,0.070398
0.051623,0.069058,-0.093830,0.143953,0.027069,0.044867,0.284227,-0.006766,0.144414,0.544787,0.339077,-0.147028,-0.057598,-0.498092,-0.384280,0.185792,-0.363030,0.065469,-0.179413,-0.584692,0.515761,1.166704,0.884469,-0.018120,0.170250,-0.033033,-0.045644,-0.085096,0.062591
0.027068,0.068925,-0.091932,0.152663,0.025060,0.044661,0.286630,-0.005541,0.149556,0.591838,0.344151,-0.142273,-0.059526,-0.511456,-0.395586,0.188340,-0.366167,0.068023,-0.186146,-0.567030,0.512294,1.156916,0.852895,-0.049383,0.190929,-0.029288,-0.043735,-0.082909,0.054470
0.005449,0.070314,-0.091648,0.166641,0.022546,0.043879,0.295962,-0.004535,0.153456,0.635708,0.348925,-0.137391,-0.059901,-0.525344,-0.409003,0.188577,-0.367337,0.070287,-0.192648,-0.548805,0.506404,1.144529,0.824930,-0.083123,0.205094,-0.028631,-0.042822,-0.079572,0.046037
-0.017220,0.072405,-0.091174,0.183476,0.020347,0.043213,0.304325,-0.003570,0.157245,0.680742,0.354133,-0.131514,-0.059853,-0.536840,-0.423539,0.188228,-0.367347,0.073481,-0.199798,-0.529330,0.499621,1.130344,0.795478,-0.119756,0.220179,-0.029505,-0.044321,-0.072874,0.037192
-0.041993,0.075902,-0.090321,0.206029,0.018777,0.042778,0.310752,-0.002685,0.160811,0.728105,0.360208,-0.123645,-0.058960,-0.543554,-0.440314,0.186706,-0.365034,0.078539,-0.208244,-0.507356,0.491053,1.112561,0.763052,-0.162176,0.237106,-0.033439,-0.050641,-0.059457,0.027524
-0.055709,0.077927,-0.088095,0.218511,0.015521,0.042933,0.304225,-0.006004,0.164127,0.745388,0.367839,-0.117067,-0.058834,-0.548609,-0.450122,0.186193,-0.362961,0.080519,-0.207231,-0.490792,0.488233,1.098708,0.744751,-0.191498,0.245203,-0.035358,-0.050426,-0.051279,0.022809
-0.063898,0.079217,-0.085181,0.225958,0.011423,0.043384,0.291221,-0.011425,0.167319,0.747633,0.376247,-0.111133,-0.059093,-0.552834,-0.456446,0.186185,-0.361007,0.080961,-0.201490,-0.476933,0.488287,1.086821,0.733513,-0.214271,0.248885,-0.036270,-0.046943,-0.045721,0.020569
-0.065420,0.081366,-0.083324,0.236979,0.006065,0.043861,0.284116,-0.017450,0.168166,0.737050,0.381061,-0.106340,-0.059241,-0.554607,-0.460622,0.184604,-0.357211,0.084446,-0.195675,-0.466322,0.488627,1.080177,0.731996,-0.224163,0.250794,-0.037200,-0.042519,-0.043630,0.024656
-0.065080,0.083529,-0.081153,0.247330,0.000179,0.044257,0.275633,-0.024020,0.168693,0.720448,0.385990,-0.101936,-0.059542,-0.554203,-0.463764,0.183001,-0.353699,0.088904,-0.189264,-0.456593,0.489813,1.073924,0.732097,-0.232186,0.250979,-0.037981,-0.037635,-0.040895,0.030185
-0.061015,0.085719,-0.078351,0.256339,-0.006760,0.044493,0.264399,-0.031681,0.168580,0.691808,0.391147,-0.098311,-0.060149,-0.549446,-0.464840,0.181355,-0.350753,0.095307,-0.181658,-0.448631,0.492692,1.068453,0.735432,-0.236470,0.247716,-0.038462,-0.031833,-0.036874,0.038597
-0.054238,0.088150,-0.075791,0.268573,-0.012990,0.045295,0.258427,-0.039016,0.168246,0.662214,0.394781,-0.094991,-0.060786,-0.542906,-0.465980,0.179522,-0.347144,0.102990,-0.174798,-0.440973,0.495482,1.063540,0.741405,-0.242068,0.243511,-0.039588,-0.026088,-0.033278,0.046713
-0.046106,0.090702,-0.073351,0.282421,-0.018865,0.046381,0.255087,-0.046188,0.167801,0.632142,0.397653,-0.091824,-0.061439,-0.535473,-0.467152,0.177596,-0.343205,0.111313,-0.168309,-0.433467,0.498226,1.058906,0.748696,-0.248321,0.238834,-0.041036,-0.020373,-0.029896,0.054682
-0.030233,0.097242,-0.071686,0.291651,-0.024432,0.047576,0.255350,-0.050227,0.169183,0.586225,0.391018,-0.090535,-0.066528,-0.513910,-0.464243,0.175723,-0.337002,0.114982,-0.160732,-0.424999,0.499973,1.056338,0.762559,-0.257169,0.237815,-0.043724,-0.015031,-0.026131,0.062432
-0.015369,0.102108,-0.070197,0.299886,-0.030805,0.048863,0.255580,-0.054473,0.169169,0.545245,0.387525,-0.087193,-0.068533,-0.495100,-0.463629,0.173326,-0.330812,0.117781,-0.153907,-0.416321,0.500096,1.052616,0.775006,-0.269379,0.240421,-0.046766,-0.009982,-0.023215,0.070398
-0.002524,0.103624,-0.069057,0.306131,-0.038788,0.050334,0.255744,-0.059132,0.166366,0.514140,0.390313,-0.079744,-0.064370,-0.481795,-0.467605,0.169879,-0.324652,0.118842,-0.148585,-0.407223,0.496972,1.046583,0.784621,-0.288314,0.250276,-0.050513,-0.005519,-0.022000,0.078792
0.010707,0.105160,-0.067967,0.304106,-0.047109,0.051938,0.253305,-0.057230,0.163616,0.483142,0.391030,-0.071974,-0.060494,-0.471989,-0.470328,0.167131,-0.320606,0.118106,-0.143141,-0.399571,0.493343,1.036495,0.789025,-0.306753,0.256859,-0.054006,-0.003398,-0.020155,0.081101
0.024130,0.106707,-0.066902,0.297946,-0.055598,0.053608,0.249564,-0.052047,0.160893,0.452196,0.390712,-0.064043,-0.056763,-0.463933,-0.472425,0.164732,-0.317617,0.116471,-0.137636,-0.392642,0.489463,1.024380,0.790822,-0.324946,0.261807,-0.057372,-0.002448,-0.017996,0.080369
0.036500,0.104832,-0.067367,0.284688,-0.068959,0.055987,0.248147,-0.049867,0.157302,0.423377,0.391885,-0.056325,-0.052238,-0.462193,-0.471970,0.164289,-0.315999,0.112803,-0.133030,-0.388490,0.482132,1.007667,0.793646,-0.341625,0.276995,-0.058925,-0.001345,-0.026201,0.082029
0.047862,0.102341,-0.067738,0.271224,-0.082369,0.058363,0.248675,-0.047069,0.153877,0.397604,0.393927,-0.048413,-0.047430,-0.461517,-0.471213,0.164255,-0.315231,0.108988,-0.129483,-0.383518,0.473313,0.988518,0.792505,-0.361538,0.293362,-0.060566,-0.001646,-0.033783,0.081281
0.057208,0.098617,-0.067917,0.257347,-0.095876,0.060735,0.253093,-0.043035,0.150784,0.377926,0.397705,-0.040112,-0.042059,-0.462973,-0.469848,0.165040,-0.316160,0.104875,-0.128051,-0.376905,0.461515,0.964497,0.783433,-0.387918,0.312084,-0.062381,-0.004757,-0.040122,0.075714
0.064310,0.092548,-0.067360,0.240318,-0.110675,0.062636,0.255838,-0.038978,0.148549,0.359395,0.403204,-0.031736,-0.034905,-0.463075,-0.467042,0.165299,-0.316311,0.101246,-0.127408,-0.368494,0.447941,0.934918,0.766510,-0.424022,0.337757,-0.067492,-0.010129,-0.037448,0.063901
0.070292,0.085307,-0.066435,0.221713,-0.126120,0.064302,0.257745,-0.034909,0.146743,0.341438,0.409565,-0.023322,-0.026861,-0.462499,-0.463516,0.165294,-0.316074,0.097860,-0.127160,-0.359184,0.433478,0.902560,0.745661,-0.464989,0.366905,-0.074252,-0.016634,-0.030266,0.048965
0.075143,0.076545,-0.064805,0.207233,-0.143109,0.066159,0.263515,-0.039311,0.146723,0.326586,0.421866,-0.017788,-0.019482,-0.463937,-0.461053,0.171223,-0.317407,0.095711,-0.127601,-0.354561,0.420562,0.868588,0.724174,-0.489457,0.390887,-0.079017,-0.021556,-0.025140,0.035985
0.079410,0.066743,-0.062512,0.193075,-0.160269,0.067548,0.267892,-0.045477,0.146718,0.312128,0.435403,-0.012057,-0.012702,-0.464263,-0.459413,0.177587,-0.318738,0.094084,-0.129028,-0.348510,0.406531,0.830853,0.696729,-0.516074,0.416955,-0.083994,-0.028369,-0.019649,0.022341
0.082506,0.054862,-0.058891,0.179563,-0.177772,0.068000,0.269484,-0.055170,0.146741,0.298459,0.451414,-0.005934,-0.007118,-0.462362,-0.459418,0.184821,-0.320065,0.093501,-0.132425,-0.339603,0.390270,0.785594,0.657368,-0.546991,0.447195,-0.089397,-0.038964,-0.013432,0.007370
0.085430,0.044716,-0.053408,0.167900,-0.193080,0.067523,0.269778,-0.069950,0.146842,0.284663,0.465286,-0.000485,-0.002979,-0.458731,-0.460685,0.193326,-0.322053,0.093814,-0.135058,-0.330093,0.375655,0.738868,0.615881,-0.576336,0.473253,-0.095230,-0.048701,-0.004887,-0.005232
0.088267,0.035439,-0.046993,0.157160,-0.207290,0.066581,0.269423,-0.087275,0.146982,0.270804,0.478089,0.004628,0.000439,-0.454236,-0.462585,0.202467,-0.324371,0.094577,-0.137309,-0.320281,0.361862,0.691408,0.573331,-0.604894,0.497220,-0.101276,-0.058008,0.004822,-0.016649
0.091155,0.030665,-0.039170,0.149969,-0.217001,0.065775,0.271270,-0.106602,0.145803,0.257146,0.488717,0.008024,0.000937,-0.449142,-0.469889,0.214297,-0.327821,0.095023,-0.137428,-0.308758,0.352222,0.636661,0.526178,-0.625049,0.525415,-0.108614,-0.065092,0.014453,-0.017938
0.094223,0.026229,-0.031388,0.142126,-0.224910,0.064481,0.270326,-0.125898,0.144313,0.242871,0.498693,0.011514,0.001294,-0.444158,-0.476569,0.226351,-0.331433,0.095835,-0.136652,-0.296769,0.342345,0.582000,0.478131,-0.643210,0.552889,-0.115508,-0.071690,0.022991,-0.016287
0.097652,0.022469,-0.023689,0.132982,-0.229214,0.062210,0.263801,-0.145132,0.142200,0.227364,0.507364,0.015190,0.001371,-0.439396,-0.482002,0.238852,-0.335368,0.097378,-0.134087,-0.283848,0.331994,0.527511,0.428296,-0.657386,0.578918,-0.121516,-0.077318,0.029340,-0.008758
0.101921,0.025061,-0.016554,0.127235,-0.231524,0.058860,0.262385,-0.162454,0.139533,0.214239,0.517420,0.016528,0.000296,-0.433603,-0.489713,0.250571,-0.339516,0.097562,-0.129027,-0.271919,0.324405,0.470208,0.377554,-0.669321,0.604338,-0.127637,-0.082394,0.033181,-0.001986
0.106610,0.030831,-0.009700,0.123187,-0.232837,0.054971,0.263523,-0.178821,0.136589,0.202305,0.528167,0.016695,-0.001354,-0.427294,-0.498564,0.261898,-0.343771,0.097069,-0.122720,-0.260485,0.318195,0.411498,0.326359,-0.680137,0.629452,-0.133816,-0.087194,0.035767,0.004408
0.112222,0.040534,-0.004295,0.120830,-0.232988,0.050375,0.268666,-0.195776,0.133688,0.191941,0.539413,0.015372,-0.001596,-0.424221,-0.505779,0.270088,-0.347324,0.094957,-0.114081,-0.248114,0.312505,0.348548,0.267340,-0.702400,0.668179,-0.140180,-0.093115,0.031592,0.016070
0.118002,0.051619,0.001135,0.118465,-0.233070,0.045572,0.272623,-0.212279,0.130136,0.182471,0.550013,0.013623,-0.002726,-0.421737,-0.511436,0.278059,-0.351519,0.092191,-0.104960,-0.235738,0.306652,0.286798,0.210674,-0.721716,0.699724,-0.145651,-0.098108,0.026466,0.027482
0.124118,0.065468,0.006612,0.116081,-0.233011,0.040355,0.274208,-0.227878,0.125282,0.174786,0.559322,0.011022,-0.005630,-0.420432,-0.513973,0.285591,-0.356997,0.088115,-0.094873,-0.223350,0.300473,0.227448,0.158714,-0.735140,0.716905,-0.149338,-0.101243,0.019438,0.038393
0.128078,0.080325,0.011836,0.114084,-0.232192,0.034824,0.275247,-0.243020,0.119945,0.169748,0.566771,0.006273,-0.008585,-0.420487,-0.514692,0.289000,-0.359458,0.082151,-0.081335,-0.210944,0.294578,0.166746,0.107314,-0.757223,0.746405,-0.155780,-0.107114,0.010677,0.048861
0.130960,0.095687,0.016934,0.112280,-0.230994,0.029137,0.276012,-0.257934,0.114366,0.166035,0.573291,0.000450,-0.011564,-0.421221,-0.514503,0.290346,-0.360410,0.075243,-0.066070,-0.198530,0.288826,0.105369,0.056194,-0.783636,0.782064,-0.163598,-0.114353,0.001051,0.059106
0.133192,0.111796,0.021372,0.110655,-0.228005,0.023318,0.278671,-0.269376,0.109129,0.164129,0.568360,-0.006167,-0.017605,-0.423359,-0.512951,0.293867,-0.363914,0.067529,-0.048716,-0.187830,0.282149,0.051303,0.012250,-0.799609,0.797205,-0.168619,-0.120401,-0.011806,0.060754
0.134044,0.128035,0.026077,0.109331,-0.225519,0.017421,0.281658,-0.281833,0.104071,0.163589,0.560585,-0.013707,-0.023960,-0.424604,-0.510684,0.296510,-0.366746,0.059737,-0.030764,-0.177860,0.276448,-0.000721,-0.030258,-0.814965,0.813528,-0.174792,-0.127031,-0.023862,0.062152
0.132139,0.144534,0.031317,0.108607,-0.224038,0.011367,0.285298,-0.296320,0.099372,0.165781,0.547124,-0.023093,-0.030942,-0.424066,-0.506986,0.297396,-0.368234,0.051787,-0.011618,-0.169348,0.272698,-0.048663,-0.069891,-0.829083,0.832214,-0.183271,-0.134828,-0.034314,0.063049
0.127681,0.159489,0.036431,0.109073,-0.221440,0.005216,0.287236,-0.309116,0.094906,0.171669,0.531895,-0.032310,-0.039710,-0.423040,-0.503842,0.298909,-0.371611,0.042723,0.005244,-0.160533,0.267977,-0.093827,-0.107218,-0.840390,0.841233,-0.191959,-0.142893,-0.043975,0.061636
0.121946,0.173673,0.041483,0.110134,-0.218283,-0.000983,0.288324,-0.321067,0.090556,0.179404,0.515783,-0.041444,-0.049371,-0.421771,-0.500974,0.300736,-0.375932,0.033101,0.020964,-0.151566,0.262771,-0.137602,-0.143391,-0.850292,0.845419,-0.200753,-0.151093,-0.053241,0.059066
0.115141,0.188562,0.047529,0.114149,-0.213447,-0.007138,0.294721,-0.332744,0.093455,0.189157,0.489391,-0.054430,-0.063753,-0.416218,-0.496767,0.301152,-0.380865,0.026197,0.034218,-0.138264,0.256086,-0.180485,-0.178650,-0.861231,0.838248,-0.212331,-0.155927,-0.057467,0.058830
0.108129,0.200808,0.053024,0.119581,-0.208255,-0.012489,0.302089,-0.342232,0.093757,0.199432,0.465948,-0.065015,-0.076115,-0.410822,-0.493033,0.300133,-0.384490,0.019785,0.046166,-0.126794,0.250490,-0.218868,-0.210673,-0.872120,0.834217,-0.223545,-0.161389,-0.062080,0.057861
0.100703,0.207766,0.057417,0.127847,-0.202351,-0.016233,0.311401,-0.347342,0.088866,0.210750,0.448400,-0.070796,-0.084440,-0.405738,-0.490241,0.296247,-0.385502,0.014358,0.055502,-0.118985,0.247073,-0.248250,-0.236226,-0.882910,0.836467,-0.234026,-0.168105,-0.067468,0.055424
0.092059,0.218064,0.060561,0.139695,-0.192049,-0.018089,0.320200,-0.351207,0.090484,0.226108,0.422630,-0.078535,-0.094358,-0.401794,-0.485176,0.292789,-0.386666,0.009460,0.062245,-0.109299,0.244191,-0.274422,-0.264079,-0.897336,0.851160,-0.243375,-0.175645,-0.073310,0.053445
0.082805,0.230032,0.063082,0.153335,-0.179548,-0.019001,0.328742,-0.354449,0.095355,0.243487,0.392750,-0.087254,-0.105072,-0.398421,-0.478975,0.289545,-0.387906,0.004825,0.067691,-0.098673,0.241578,-0.298988,-0.293084,-0.913580,0.872075,-0.252158,-0.183598,-0.079378,0.051696
0.074315,0.233109,0.064539,0.168348,-0.170777,-0.019263,0.336581,-0.351079,0.092761,0.259593,0.378233,-0.089210,-0.109623,-0.393435,-0.473541,0.281228,-0.386627,0.005150,0.071336,-0.091027,0.239753,-0.317917,-0.313842,-0.929887,0.881060,-0.263095,-0.188770,-0.076222,0.053508
0.065537,0.236431,0.065074,0.183976,-0.160951,-0.018416,0.343227,-0.346807,0.091013,0.276398,0.364114,-0.091279,-0.114124,-0.389595,-0.468288,0.274073,-0.386024,0.006192,0.074503,-0.083879,0.238118,-0.334879,-0.334153,-0.945817,0.892207,-0.273591,-0.194847,-0.071615,0.053215
0.056184,0.240243,0.063765,0.200832,-0.149012,-0.015348,0.347485,-0.340734,0.090954,0.294600,0.350793,-0.093575,-0.118524,-0.388046,-0.463398,0.269243,-0.386774,0.008668,0.076714,-0.077724,0.236862,-0.347907,-0.353567,-0.960990,0.907680,-0.283208,-0.202736,-0.064105,0.048712
0.046766,0.243200,0.060058,0.216572,-0.137418,-0.011193,0.350530,-0.333555,0.092393,0.312764,0.339704,-0.096293,-0.121861,-0.387590,-0.460457,0.265521,-0.388256,0.012482,0.076906,-0.073305,0.236139,-0.357291,-0.370905,-0.975192,0.923443,-0.290850,-0.209655,-0.057285,0.043422
0.037315,0.245730,0.055151,0.231753,-0.125997,-0.006496,0.352968,-0.325823,0.094580,0.330910,0.329732,-0.099223,-0.124668,-0.387682,-0.458492,0.262355,-0.390104,0.016964,0.076090,-0.069753,0.235682,-0.364853,-0.387204,-0.988907,0.939351,-0.297503,-0.216089,-0.050812,0.037740
0.027653,0.246747,0.045711,0.247621,-0.111998,0.000339,0.358762,-0.316211,0.096746,0.349202,0.319928,-0.102738,-0.125726,-0.388500,-0.455537,0.261716,-0.392835,0.024689,0.074077,-0.068674,0.232536,-0.372057,-0.401184,-1.003592,0.952861,-0.301108,-0.217768,-0.050183,0.039403
0.018704,0.247582,0.036780,0.261755,-0.099475,0.007136,0.362201,-0.307752,0.099342,0.366413,0.311780,-0.105736,-0.125670,-0.389436,-0.452425,0.262002,-0.396136,0.031378,0.071888,-0.067349,0.229497,-0.377596,-0.414903,-1.015765,0.966103,-0.303664,-0.219717,-0.049820,0.041189
0.011180,0.248056,0.028865,0.272423,-0.089904,0.013858,0.360934,-0.301601,0.102794,0.381464,0.306946,-0.107698,-0.123384,-0.390607,-0.448998,0.264140,-0.400578,0.035995,0.069346,-0.065533,0.226673,-0.379805,-0.428099,-1.022915,0.978811,-0.304125,-0.222207,-0.049990,0.043219
0.004046,0.247306,0.022040,0.280579,-0.080387,0.020159,0.358874,-0.293076,0.105484,0.393197,0.301795,-0.109029,-0.119488,-0.389932,-0.445123,0.266438,-0.404723,0.039071,0.067344,-0.064035,0.224926,-0.381466,-0.437356,-1.027747,0.988713,-0.304016,-0.223266,-0.051054,0.044938
-0.002891,0.245943,0.015760,0.287479,-0.070896,0.026250,0.356418,-0.283365,0.107791,0.403272,0.296487,-0.110044,-0.114787,-0.388334,-0.441024,0.268815,-0.408720,0.041376,0.065611,-0.062697,0.223720,-0.382852,-0.444644,-1.031420,0.997212,-0.303622,-0.223609,-0.052564,0.046503
-0.008368,0.244600,0.010790,0.290751,-0.063364,0.030653,0.353873,-0.273823,0.109654,0.410843,0.294577,-0.110506,-0.108773,-0.387610,-0.438198,0.269872,-0.412232,0.042181,0.064238,-0.060999,0.223688,-0.385232,-0.451354,-1.033446,1.007512,-0.303122,-0.223903,-0.054042,0.046853
-0.013553,0.243105,0.006151,0.293186,-0.056661,0.034522,0.351855,-0.265504,0.111320,0.418093,0.293249,-0.110543,-0.102885,-0.387284,-0.435951,0.270809,-0.416053,0.042764,0.062769,-0.059693,0.223710,-0.388879,-0.458034,-1.036392,1.016814,-0.302418,-0.223608,-0.056713,0.048251
-0.018154,0.241306,0.002177,0.293949,-0.051613,0.037327,0.350889,-0.259632,0.112593,0.424699,0.293082,-0.109732,-0.097247,-0.387756,-0.434862,0.271506,-0.420495,0.042904,0.061109,-0.059175,0.223839,-0.395063,-0.464655,-1.041176,1.024119,-0.301307,-0.222135,-0.061769,0.051747
-0.022526,0.239646,-0.000841,0.294111,-0.047187,0.039736,0.348964,-0.254946,0.113498,0.430935,0.293236,-0.107771,-0.092489,-0.389570,-0.434064,0.271959,-0.425087,0.042620,0.059510,-0.059053,0.223848,-0.401053,-0.470410,-1.045466,1.028596,-0.298771,-0.220013,-0.068246,0.055132
-0.026785,0.238056,-0.003380,0.293972,-0.043072,0.041949,0.346561,-0.250853,0.114219,0.436986,0.293551,-0.105234,-0.088172,-0.392055,-0.433412,0.272290,-0.429756,0.042124,0.057941,-0.059130,0.223797,-0.406945,-0.475731,-1.049510,1.031657,-0.295524,-0.217567,-0.075434,0.058464
-0.030976,0.234672,-0.004819,0.291782,-0.040315,0.043499,0.342792,-0.245161,0.113864,0.438970,0.295664,-0.102348,-0.084576,-0.391360,-0.433115,0.270646,-0.432775,0.040916,0.057700,-0.058802,0.223819,-0.413456,-0.479648,-1.053100,1.033613,-0.295034,-0.216492,-0.078215,0.059640
-0.034883,0.231476,-0.006419,0.290004,-0.037623,0.045284,0.338968,-0.240101,0.113578,0.440753,0.297939,-0.099154,-0.081264,-0.391592,-0.433226,0.269377,-0.435673,0.040030,0.057128,-0.058569,0.223381,-0.419498,-0.483630,-1.055900,1.035692,-0.294340,-0.216443,-0.081132,0.060300
-0.038222,0.228657,-0.008342,0.289050,-0.035060,0.047537,0.335031,-0.236303,0.113432,0.442131,0.300540,-0.095344,-0.078519,-0.393680,-0.434150,0.268856,-0.438328,0.039790,0.055899,-0.058529,0.222022,-0.424605,-0.487744,-1.057117,1.038015,-0.293238,-0.218449,-0.084323,0.059928
-0.041026,0.224834,-0.010192,0.288978,-0.032782,0.049571,0.332124,-0.232209,0.113916,0.442164,0.304943,-0.091010,-0.075840,-0.395397,-0.436022,0.267167,-0.439423,0.040223,0.054590,-0.059237,0.221060,-0.428918,-0.491192,-1.059015,1.039731,-0.292123,-0.220411,-0.086754,0.059362
-0.043561,0.220509,-0.012006,0.289347,-0.030646,0.051495,0.329733,-0.227966,0.114715,0.441525,0.310247,-0.086414,-0.073193,-0.396929,-0.438368,0.264894,-0.439738,0.040994,0.053242,-0.060319,0.220296,-0.432835,-0.494307,-1.061254,1.041145,-0.291002,-0.222353,-0.088806,0.058698
-0.046920,0.215739,-0.014578,0.291946,-0.028206,0.054384,0.326967,-0.224499,0.115810,0.441536,0.316490,-0.081868,-0.069692,-0.397131,-0.441178,0.262067,-0.438381,0.041993,0.052244,-0.061341,0.219695,-0.435393,-0.498149,-1.068558,1.048176,-0.291706,-0.227029,-0.089968,0.056822
-0.050105,0.210808,-0.017252,0.294612,-0.025786,0.057121,0.324307,-0.220308,0.117122,0.441928,0.323766,-0.077119,-0.066152,-0.398241,-0.444409,0.259289,-0.437010,0.043282,0.051296,-0.062366,0.219159,-0.437788,-0.502507,-1.076041,1.055017,-0.292423,-0.231422,-0.091021,0.054975
-0.052940,0.205556,-0.020131,0.297416,-0.023404,0.059551,0.321863,-0.214669,0.118869,0.443084,0.333107,-0.071963,-0.062536,-0.401169,-0.448482,0.256608,-0.435612,0.045149,0.050446,-0.063400,0.218753,-0.439858,-0.507897,-1.083880,1.061477,-0.293170,-0.235245,-0.091858,0.053185
-0.056760,0.199437,-0.023493,0.301105,-0.021451,0.061726,0.321524,-0.209265,0.120223,0.446116,0.342128,-0.066899,-0.058176,-0.403979,-0.453424,0.253552,-0.433543,0.046791,0.050405,-0.063935,0.218492,-0.441699,-0.512868,-1.092086,1.068706,-0.294887,-0.237790,-0.092699,0.052529
-0.061073,0.192884,-0.027097,0.305236,-0.019712,0.063774,0.322238,-0.203979,0.121382,0.450087,0.350989,-0.061882,-0.053445,-0.406731,-0.458801,0.250308,-0.431138,0.048320,0.050769,-0.064219,0.218304,-0.443424,-0.517632,-1.100477,1.076319,-0.297091,-0.239695,-0.093541,0.052439
-0.067093,0.187910,-0.031208,0.309769,-0.017404,0.065891,0.320702,-0.199083,0.122532,0.457172,0.360445,-0.057864,-0.048938,-0.412635,-0.465075,0.248809,-0.429615,0.050225,0.051300,-0.064303,0.219019,-0.443263,-0.523361,-1.107587,1.083591,-0.300006,-0.241671,-0.092128,0.051695
-0.073967,0.183055,-0.035724,0.314561,-0.015049,0.068078,0.318310,-0.194199,0.123580,0.465144,0.370028,-0.054541,-0.044572,-0.418332,-0.471136,0.247877,-0.428625,0.051621,0.051938,-0.064406,0.219843,-0.443527,-0.529973,-1.114377,1.090267,-0.303617,-0.244436,-0.090614,0.051122
-0.082549,0.178439,-0.041052,0.319870,-0.012598,0.070407,0.314204,-0.189338,0.124425,0.474890,0.379869,-0.052606,-0.040487,-0.423615,-0.476775,0.248080,-0.428699,0.051998,0.052791,-0.064549,0.220885,-0.444638,-0.538349,-1.120523,1.095754,-0.308623,-0.248777,-0.088899,0.050893
-0.093882,0.174318,-0.047923,0.326636,-0.011076,0.073013,0.309798,-0.187604,0.125172,0.486528,0.391037,-0.052841,-0.037044,-0.427239,-0.484966,0.250845,-0.430691,0.050382,0.053635,-0.066224,0.222345,-0.445755,-0.549108,-1.123959,1.101784,-0.313280,-0.255438,-0.087754,0.050483
-0.106593,0.170446,-0.055565,0.334129,-0.010019,0.075758,0.305243,-0.187434,0.125870,0.499111,0.402868,-0.054162,-0.033922,-0.430032,-0.494434,0.254891,-0.433643,0.047771,0.054475,-0.068665,0.224014,-0.446875,-0.561058,-1.126040,1.108085,-0.317764,-0.263260,-0.086894,0.049983
-0.120441,0.167820,-0.060031,0.337704,-0.012978,0.075644,0.300019,-0.190282,0.125165,0.512239,0.414034,-0.055838,-0.033051,-0.433067,-0.510013,0.261123,-0.440088,0.045120,0.054448,-0.069842,0.226885,-0.448257,-0.576344,-1.113576,1.107482,-0.320218,-0.265443,-0.089743,0.054878
-0.135932,0.166082,-0.062931,0.341643,-0.016412,0.074625,0.294660,-0.195170,0.123586,0.526968,0.425127,-0.057496,-0.034628,-0.436360,-0.525191,0.268181,-0.448391,0.043810,0.054181,-0.071394,0.229509,-0.450499,-0.592851,-1.099800,1.104181,-0.322352,-0.267784,-0.093475,0.060593
-0.154706,0.166123,-0.062700,0.346310,-0.020796,0.071796,0.289032,-0.204139,0.120257,0.544901,0.436074,-0.059117,-0.041100,-0.440170,-0.539567,0.276893,-0.460408,0.045179,0.053432,-0.073693,0.231639,-0.454462,-0.611798,-1.083398,1.095485,-0.323844,-0.270440,-0.098973,0.067951
-0.175439,0.169456,-0.057750,0.349191,-0.028282,0.066037,0.283682,-0.219860,0.113731,0.563337,0.446032,-0.059631,-0.054892,-0.440337,-0.554977,0.289492,-0.480297,0.047948,0.052515,-0.077899,0.233123,-0.460545,-0.634706,-1.059347,1.079325,-0.322501,-0.273323,-0.107848,0.077725
-0.197151,0.174434,-0.050440,0.351179,-0.037319,0.058811,0.278470,-0.238957,0.105607,0.582024,0.455495,-0.059591,-0.072343,-0.438684,-0.570903,0.304035,-0.504122,0.051417,0.051513,-0.083057,0.234284,-0.467687,-0.659595,-1.031471,1.059434,-0.319741,-0.276321,-0.118411,0.088707
-0.224708,0.188676,-0.031336,0.345321,-0.049136,0.047519,0.261748,-0.269525,0.091728,0.602612,0.461114,-0.053365,-0.105284,-0.439899,-0.584481,0.323877,-0.541579,0.053099,0.048079,-0.089178,0.234975,-0.478207,-0.694944,-0.992454,1.043033,-0.313756,-0.287279,-0.136540,0.099430
-0.252240,0.206741,-0.008907,0.335864,-0.062950,0.033299,0.244595,-0.305798,0.078930,0.621582,0.464506,-0.045792,-0.144587,-0.441649,-0.597325,0.344339,-0.583168,0.055974,0.043598,-0.097655,0.232656,-0.492013,-0.728809,-0.952529,1.019014,-0.307936,-0.301388,-0.155066,0.101599
-0.279720,0.232452,0.020177,0.319210,-0.080757,0.013227,0.226584,-0.353483,0.068297,0.637315,0.463443,-0.035526,-0.196616,-0.444468,-0.608701,0.366038,-0.633020,0.061235,0.037023,-0.110847,0.224319,-0.512389,-0.759709,-0.910790,0.979761,-0.302448,-0.321801,-0.174388,0.086660
-0.304470,0.268570,0.061077,0.289940,-0.098039,-0.014239,0.202029,-0.422649,0.059237,0.639120,0.455355,-0.025373,-0.269428,-0.438965,-0.608369,0.389733,-0.697019,0.065513,0.026748,-0.135931,0.213851,-0.540492,-0.789868,-0.884747,0.907483,-0.301246,-0.350454,-0.193856,0.038288
-0.327854,0.309892,0.107885,0.254363,-0.115057,-0.045401,0.174204,-0.502556,0.050963,0.633961,0.443756,-0.015277,-0.352633,-0.429302,-0.602183,0.414425,-0.768090,0.069298,0.014624,-0.166962,0.202318,-0.572459,-0.819656,-0.866554,0.818692,-0.302188,-0.383227,-0.213397,-0.026800
-0.345859,0.353288,0.159208,0.197419,-0.125458,-0.084040,0.136734,-0.583797,0.049168,0.608845,0.442715,-0.001754,-0.461112,-0.405755,-0.580230,0.443902,-0.848629,0.069961,-0.004402,-0.221325,0.191379,-0.599962,-0.816517,-0.887227,0.654318,-0.307354,-0.407254,-0.220196,-0.140580
-0.365589,0.389007,0.207372,0.138141,-0.132532,-0.120496,0.098845,-0.650517,0.047637,0.591652,0.446169,0.009757,-0.568036,-0.383778,-0.557096,0.473830,-0.925084,0.069932,-0.022083,-0.276230,0.182028,-0.628439,-0.809909,-0.911688,0.495975,-0.312446,-0.422407,-0.227958,-0.248327
-0.388772,0.409373,0.249218,0.074194,-0.132950,-0.152589,0.060119,-0.688193,0.046635,0.590308,0.458612,0.017246,-0.671851,-0.364945,-0.531600,0.504661,-0.993372,0.068520,-0.037077,-0.332219,0.175852,-0.658865,-0.796365,-0.943724,0.349691,-0.317389,-0.419811,-0.237647,-0.344006
-0.409711,0.412692,0.284410,0.013728,-0.133923,-0.176619,0.029521,-0.699068,0.045488,0.606453,0.491387,0.023807,-0.754800,-0.359749,-0.513138,0.530056,-1.036623,0.067227,-0.049729,-0.385865,0.179013,-0.685505,-0.782639,-0.963599,0.262038,-0.318047,-0.409857,-0.254038,-0.388895
-0.429528,0.407489,0.316275,-0.044995,-0.135172,-0.196618,0.002987,-0.696543,0.044269,0.631342,0.534328,0.029906,-0.827317,-0.361374,-0.498194,0.552732,-1.067354,0.065994,-0.061210,-0.438340,0.186842,-0.710252,-0.768823,-0.977394,0.203700,-0.316563,-0.396226,-0.273781,-0.408390
-0.452058,0.390287,0.335014,-0.107848,-0.133881,-0.211705,-0.023733,-0.666686,0.047773,0.680002,0.586049,0.029468,-0.865186,-0.375881,-0.490329,0.563337,-1.099370,0.054860,-0.057184,-0.477459,0.212217,-0.732862,-0.771818,-0.978277,0.186648,-0.316945,-0.390400,-0.294701,-0.389179
-0.474442,0.368911,0.354587,-0.163142,-0.128121,-0.224491,-0.043326,-0.631559,0.051017,0.726887,0.636920,0.026795,-0.901721,-0.392513,-0.487363,0.575721,-1.134975,0.048546,-0.051193,-0.514669,0.241147,-0.753518,-0.766664,-0.976105,0.153021,-0.313961,-0.376929,-0.322446,-0.359208
-0.496531,0.339186,0.375826,-0.203317,-0.113423,-0.232670,-0.048664,-0.585892,0.053739,0.770222,0.686093,0.019654,-0.935587,-0.413394,-0.494196,0.591661,-1.177761,0.051871,-0.041275,-0.548058,0.277186,-0.770269,-0.745212,-0.967821,0.086245,-0.304247,-0.348167,-0.363842,-0.307719
-0.511296,0.306663,0.391925,-0.241014,-0.091277,-0.228068,-0.056537,-0.528897,0.057306,0.800821,0.745282,0.006365,-0.949066,-0.436197,-0.480329,0.584191,-1.205025,0.057496,-0.031658,-0.570121,0.307683,-0.773965,-0.710243,-0.938378,0.043545,-0.299774,-0.324279,-0.384650,-0.264027
-0.522399,0.272742,0.405454,-0.277470,-0.065407,-0.217075,-0.065679,-0.466239,0.061295,0.825053,0.809478,-0.009996,-0.952351,-0.459963,-0.456111,0.565017,-1.224529,0.064269,-0.022192,-0.586522,0.335410,-0.771133,-0.668516,-0.898355,0.012883,-0.297922,-0.302830,-0.395164,-0.224232
-0.532076,0.266190,0.412254,-0.295145,-0.036102,-0.211136,-0.080231,-0.408767,0.058974,0.828856,0.806449,-0.020452,-0.968900,-0.468169,-0.464423,0.558188,-1.264228,0.060356,-0.023764,-0.620592,0.375937,-0.772716,-0.555870,-0.896037,-0.033409,-0.294396,-0.272486,-0.410158,-0.191066
-0.541923,0.263998,0.418721,-0.305703,-0.013339,-0.203968,-0.092558,-0.360397,0.057415,0.834882,0.800666,-0.040073,-0.983725,-0.476514,-0.471004,0.548258,-1.292516,0.058506,-0.026433,-0.650858,0.417625,-0.768556,-0.409355,-0.894475,-0.060432,-0.290451,-0.243218,-0.419139,-0.158261
-0.552111,0.270526,0.424523,-0.302029,-0.003660,-0.194342,-0.100432,-0.330229,0.057382,0.845354,0.789379,-0.078027,-0.995103,-0.485137,-0.474120,0.532125,-1.297982,0.060780,-0.031293,-0.673514,0.461639,-0.752911,-0.195099,-0.894427,-0.048916,-0.285669,-0.216103,-0.416094,-0.126175
-0.551907,0.285994,0.440120,-0.268606,0.019685,-0.182932,-0.076658,-0.274483,0.066064,0.853843,0.752962,-0.123973,-0.993958,-0.502920,-0.461663,0.523203,-1.274836,0.059350,-0.041722,-0.686523,0.538811,-0.717697,0.282956,-0.920050,-0.026247,-0.250710,-0.150434,-0.399415,-0.066994
-0.546506,0.305932,0.460615,-0.220308,0.049862,-0.170631,-0.037060,-0.205949,0.079103,0.861340,0.703980,-0.173915,-0.986552,-0.525283,-0.441420,0.517887,-1.237384,0.056069,-0.054934,-0.694707,0.632562,-0.672698,0.892912,-0.958509,0.001997,-0.200663,-0.065487,-0.375920,0.005735
-0.541063,0.316030,0.432107,-0.194055,0.036625,-0.137124,-0.052175,-0.188509,0.077993,0.849673,0.683345,-0.167152,-0.994422,-0.521865,-0.456174,0.494484,-1.167110,0.048055,-0.058882,-0.660736,0.610957,-0.651891,0.989983,-0.989176,0.076389,-0.203737,-0.066117,-0.322264,-0.046198
-0.533905,0.321323,0.399807,-0.160969,0.017095,-0.108435,-0.064044,-0.176573,0.079088,0.835010,0.670854,-0.162613,-0.991638,-0.520649,-0.470033,0.466777,-1.095616,0.046594,-0.058056,-0.615436,0.573160,-0.626045,0.996529,-1.019637,0.164186,-0.205800,-0.079230,-0.284310,-0.095018
-0.523316,0.317004,0.359923,-0.114216,-0.015024,-0.089380,-0.069423,-0.175644,0.084591,0.814357,0.674652,-0.162523,-0.967545,-0.523838,-0.482100,0.430461,-1.021684,0.058238,-0.047686,-0.547475,0.502981,-0.590120,0.822023,-1.049685,0.278792,-0.205844,-0.117312,-0.277760,-0.137614
-0.501300,0.316492,0.320517,-0.059983,-0.029891,-0.074223,-0.059128,-0.165412,0.088783,0.776393,0.650553,-0.165425,-0.927784,-0.514072,-0.484329,0.408053,-0.958611,0.067148,-0.040892,-0.492685,0.444769,-0.559479,0.628654,-1.068191,0.347201,-0.220922,-0.163876,-0.278634,-0.164063
-0.473570,0.317881,0.281350,-0.002010,-0.036132,-0.061015,-0.040997,-0.150527,0.092318,0.729773,0.612506,-0.169823,-0.880189,-0.497828,-0.481639,0.392600,-0.900969,0.074692,-0.035886,-0.444481,0.392540,-0.531481,0.425855,-1.080927,0.392513,-0.243517,-0.214682,-0.283220,-0.182438
-0.428310,0.304709,0.247197,0.049920,-0.051152,-0.052646,-0.018008,-0.158334,0.099938,0.672054,0.599431,-0.175956,-0.819630,-0.483033,-0.485960,0.387796,-0.829505,0.082184,-0.021333,-0.396560,0.345941,-0.514924,0.224515,-1.068503,0.433098,-0.260891,-0.245418,-0.281910,-0.164096
-0.387315,0.288756,0.213819,0.095983,-0.064336,-0.044109,0.003781,-0.163844,0.104497,0.620074,0.588543,-0.180262,-0.756809,-0.467811,-0.485333,0.384264,-0.759531,0.086135,-0.005242,-0.350657,0.305289,-0.503018,0.032107,-1.051055,0.477853,-0.277274,-0.272440,-0.279115,-0.140232
-0.354850,0.267242,0.181993,0.130315,-0.073845,-0.035236,0.023166,-0.164760,0.102931,0.579573,0.582028,-0.180913,-0.689461,-0.451735,-0.474811,0.383273,-0.692540,0.083006,0.013927,-0.308786,0.276534,-0.500414,-0.142435,-1.023554,0.530945,-0.291672,-0.292032,-0.273354,-0.105324
-0.325636,0.245045,0.156254,0.156764,-0.082886,-0.028367,0.045960,-0.163490,0.098561,0.549980,0.579752,-0.178369,-0.624613,-0.439476,-0.474075,0.390172,-0.634829,0.079387,0.030392,-0.275253,0.266929,-0.500687,-0.276882,-0.998414,0.597237,-0.298803,-0.295632,-0.258120,-0.068371
-0.298047,0.222506,0.133560,0.179272,-0.091692,-0.022500,0.070458,-0.161127,0.092788,0.525840,0.579593,-0.174227,-0.561016,-0.429125,-0.478233,0.401015,-0.581758,0.075523,0.045505,-0.245888,0.266899,-0.502398,-0.391280,-0.974453,0.670130,-0.302299,-0.291236,-0.238150,-0.030397
-0.273052,0.204644,0.116723,0.195519,-0.096016,-0.015678,0.096475,-0.152087,0.089188,0.508032,0.574140,-0.166259,-0.503410,-0.419106,-0.488749,0.409824,-0.550918,0.070456,0.056170,-0.213966,0.275197,-0.507604,-0.466463,-0.955782,0.738838,-0.301244,-0.280648,-0.227656,0.008702
-0.249474,0.188658,0.100530,0.210509,-0.097794,-0.007464,0.122475,-0.141168,0.086481,0.494428,0.566620,-0.156969,-0.449490,-0.412317,-0.495220,0.416612,-0.523281,0.066037,0.065967,-0.183906,0.282888,-0.514013,-0.530125,-0.943096,0.802390,-0.302228,-0.270426,-0.212710,0.043350
-0.228730,0.176425,0.085628,0.222986,-0.094483,0.003535,0.148437,-0.126492,0.085559,0.489233,0.554966,-0.145039,-0.402942,-0.411990,-0.493601,0.419360,-0.502055,0.062917,0.074029,-0.157567,0.289364,-0.522831,-0.570746,-0.942379,0.855634,-0.307289,-0.260937,-0.188860,0.069094
-0.211940,0.166071,0.073746,0.229165,-0.092419,0.013092,0.167174,-0.116883,0.085075,0.485390,0.544992,-0.132523,-0.360236,-0.414759,-0.491949,0.420351,-0.486288,0.061450,0.080368,-0.134660,0.291311,-0.528783,-0.596234,-0.939812,0.893464,-0.311031,-0.252790,-0.169257,0.088323
-0.197127,0.156655,0.063374,0.232194,-0.090978,0.021929,0.182296,-0.109809,0.084810,0.482223,0.535858,-0.119715,-0.319450,-0.419076,-0.490280,0.420465,-0.473250,0.060809,0.085846,-0.113468,0.290992,-0.533301,-0.614156,-0.936320,0.923587,-0.314115,-0.245313,-0.151779,0.104294
-0.183003,0.147412,0.053148,0.233544,-0.088697,0.030920,0.193956,-0.101672,0.087910,0.484247,0.533593,-0.106602,-0.280617,-0.428306,-0.486750,0.415091,-0.458434,0.059015,0.090519,-0.096512,0.290575,-0.537295,-0.626828,-0.939812,0.967793,-0.314555,-0.241801,-0.139557,0.116386
-0.170751,0.138072,0.043984,0.235165,-0.086522,0.039742,0.203447,-0.095341,0.090417,0.487527,0.532274,-0.093484,-0.243544,-0.438439,-0.483079,0.407375,-0.442903,0.056750,0.095512,-0.081499,0.288955,-0.540431,-0.636262,-0.945377,1.008701,-0.315442,-0.240467,-0.128355,0.124533
-0.162240,0.128536,0.036941,0.237330,-0.084564,0.048226,0.208600,-0.092623,0.091737,0.493317,0.532845,-0.080357,-0.209990,-0.450377,-0.479131,0.394977,-0.425943,0.053545,0.101147,-0.070371,0.284926,-0.541852,-0.639218,-0.955086,1.043015,-0.317225,-0.243490,-0.119192,0.124792
-0.150257,0.123306,0.029751,0.236735,-0.085952,0.054917,0.215294,-0.095264,0.094001,0.488299,0.530576,-0.069498,-0.176283,-0.455421,-0.476764,0.381937,-0.410901,0.051795,0.104875,-0.061995,0.278677,-0.545162,-0.640175,-0.974033,1.070588,-0.321349,-0.246076,-0.112192,0.128345
-0.136539,0.120229,0.022488,0.234760,-0.089013,0.060712,0.222759,-0.100583,0.096738,0.477877,0.526886,-0.059774,-0.142498,-0.457019,-0.475190,0.368577,-0.396818,0.050772,0.107649,-0.054994,0.271316,-0.549417,-0.640133,-0.997599,1.094791,-0.326644,-0.248444,-0.106274,0.133545
-0.126568,0.115632,0.017992,0.235106,-0.094756,0.063880,0.235093,-0.112071,0.096993,0.472502,0.525985,-0.049531,-0.111354,-0.460352,-0.477399,0.353758,-0.380046,0.049562,0.109254,-0.051008,0.263998,-0.553703,-0.634239,-1.017292,1.110457,-0.329139,-0.246475,-0.102858,0.131671
-0.115485,0.112418,0.013881,0.234444,-0.099992,0.066841,0.245737,-0.121202,0.096795,0.463612,0.522129,-0.040136,-0.081152,-0.460941,-0.477476,0.339545,-0.364284,0.048601,0.111088,-0.047095,0.255857,-0.558370,-0.629363,-1.036190,1.128248,-0.332710,-0.245698,-0.099850,0.130295
-0.102180,0.111967,0.010539,0.231767,-0.104212,0.069390,0.252999,-0.125619,0.095694,0.447693,0.512361,-0.032438,-0.052834,-0.456042,-0.473285,0.326545,-0.350543,0.048139,0.113380,-0.043329,0.246070,-0.563796,-0.626526,-1.053497,1.150289,-0.338433,-0.247304,-0.097655,0.129914
-0.092770,0.109566,0.006405,0.229635,-0.110702,0.070407,0.262066,-0.130455,0.093741,0.438989,0.508081,-0.024737,-0.027494,-0.452210,-0.470025,0.314894,-0.337448,0.047887,0.115255,-0.041640,0.236724,-0.568133,-0.624692,-1.065613,1.163275,-0.342814,-0.248708,-0.092634,0.125807
-0.085307,0.106190,0.001873,0.227775,-0.118327,0.070659,0.272034,-0.135500,0.091363,0.433892,0.506543,-0.017035,-0.003643,-0.448912,-0.467230,0.303917,-0.324675,0.047740,0.116921,-0.040988,0.227597,-0.571926,-0.623361,-1.075133,1.171734,-0.346523,-0.250012,-0.086200,0.119836
-0.077263,0.107824,-0.001849,0.228370,-0.121591,0.071283,0.278517,-0.138416,0.087242,0.427574,0.501998,-0.013255,0.016160,-0.445333,-0.464850,0.297304,-0.317339,0.044515,0.115893,-0.041130,0.218548,-0.577045,-0.621508,-1.079216,1.176774,-0.348678,-0.253978,-0.079277,0.106911
-0.068871,0.110402,-0.004718,0.228854,-0.125426,0.071605,0.284165,-0.142781,0.082979,0.419986,0.496005,-0.009649,0.033985,-0.442446,-0.464100,0.291443,-0.312230,0.041630,0.114267,-0.040624,0.209284,-0.581410,-0.620329,-1.081569,1.178768,-0.350546,-0.257461,-0.073504,0.096845
-0.059784,0.114871,-0.005882,0.229115,-0.130405,0.071321,0.288142,-0.150045,0.078432,0.409858,0.487119,-0.006388,0.047855,-0.440943,-0.466609,0.287082,-0.311574,0.039423,0.111446,-0.038825,0.199591,-0.584266,-0.620497,-1.080461,1.174670,-0.351840,-0.259976,-0.070033,0.092497
-0.050760,0.119239,-0.006903,0.228810,-0.133726,0.072066,0.290591,-0.155502,0.073974,0.399572,0.479789,-0.004497,0.058819,-0.439767,-0.466800,0.283341,-0.311449,0.036686,0.110414,-0.039177,0.191894,-0.587720,-0.620684,-1.079509,1.171864,-0.351914,-0.261828,-0.069340,0.090081
-0.041768,0.123557,-0.007852,0.228222,-0.136218,0.073326,0.292278,-0.160056,0.069561,0.389207,0.473237,-0.003291,0.068331,-0.438755,-0.465832,0.279909,-0.311588,0.033685,0.110276,-0.040605,0.185196,-0.591475,-0.620880,-1.078635,1.169705,-0.351379,-0.263348,-0.070036,0.088629
-0.032953,0.127653,-0.007236,0.224367,-0.140580,0.074222,0.292294,-0.165862,0.066378,0.381201,0.470596,-0.001627,0.074370,-0.438556,-0.466594,0.278727,-0.312372,0.032607,0.109999,-0.042852,0.180153,-0.591000,-0.620869,-1.073216,1.164765,-0.350331,-0.264126,-0.062263,0.083940
-0.024834,0.130841,-0.006424,0.221036,-0.143981,0.075192,0.292638,-0.170161,0.063157,0.373514,0.468551,-0.000241,0.079125,-0.439235,-0.467469,0.278347,-0.313510,0.032269,0.109447,-0.045392,0.175697,-0.590517,-0.620498,-1.066782,1.159517,-0.349260,-0.265587,-0.054748,0.078017
-0.018107,0.132211,-0.005224,0.218748,-0.145460,0.076309,0.293638,-0.171444,0.059859,0.366465,0.467696,0.000591,0.081312,-0.441672,-0.468570,0.279570,-0.315359,0.033409,0.108346,-0.048516,0.172415,-0.590018,-0.619406,-1.058314,1.153654,-0.348142,-0.268411,-0.047748,0.069629
-0.012042,0.132879,-0.003397,0.215519,-0.147393,0.076481,0.293703,-0.174016,0.057064,0.359643,0.467828,0.002035,0.081155,-0.442488,-0.470532,0.279793,-0.316046,0.034302,0.107298,-0.052224,0.170096,-0.588710,-0.619196,-1.049835,1.146571,-0.347781,-0.270664,-0.040973,0.062950
-0.006306,0.133196,-0.001257,0.211819,-0.149553,0.076182,0.293301,-0.177234,0.054519,0.352933,0.468454,0.003785,0.079826,-0.442495,-0.472923,0.279516,-0.316152,0.035070,0.106275,-0.056224,0.168258,-0.586998,-0.619429,-1.041350,1.138878,-0.347799,-0.272632,-0.034311,0.057124
-0.001376,0.132932,0.001014,0.208977,-0.150627,0.076553,0.294197,-0.180187,0.051391,0.346461,0.468387,0.004836,0.077201,-0.442416,-0.473916,0.280001,-0.314952,0.036696,0.105339,-0.060982,0.168544,-0.583759,-0.620788,-1.030315,1.135070,-0.346781,-0.274655,-0.028696,0.052102
0.003006,0.132489,0.002856,0.206603,-0.150830,0.077021,0.295256,-0.182017,0.048534,0.340721,0.468660,0.005969,0.074234,-0.442447,-0.474398,0.280335,-0.313252,0.038385,0.104696,-0.066786,0.169286,-0.580078,-0.621994,-1.020268,1.133173,-0.345678,-0.277419,-0.025783,0.047958
0.006290,0.131687,0.003841,0.205163,-0.149291,0.077683,0.296642,-0.181599,0.046218,0.336449,0.469612,0.007268,0.070582,-0.442698,-0.473857,0.280368,-0.310553,0.040200,0.104637,-0.074683,0.170940,-0.575516,-0.622891,-1.012199,1.135099,-0.344404,-0.281661,-0.028276,0.045569
0.009280,0.132204,0.006171,0.202192,-0.149431,0.077430,0.295794,-0.185034,0.042941,0.331540,0.470402,0.008319,0.065853,-0.441624,-0.474041,0.280689,-0.308898,0.041245,0.104451,-0.082958,0.173855,-0.569897,-0.623790,-1.003996,1.134934,-0.341944,-0.283740,-0.031749,0.046425
0.012122,0.133379,0.009174,0.198454,-0.150408,0.076719,0.293829,-0.190395,0.039185,0.326313,0.471111,0.009244,0.060586,-0.439889,-0.474588,0.281155,-0.307765,0.041906,0.104202,-0.091422,0.177400,-0.563749,-0.624692,-0.995724,1.133723,-0.338890,-0.284739,-0.035712,0.048903
0.013773,0.134601,0.010721,0.196712,-0.148531,0.075896,0.294798,-0.189165,0.036137,0.322057,0.469284,0.009650,0.054826,-0.438153,-0.474155,0.280024,-0.305398,0.043735,0.104476,-0.101506,0.180864,-0.557765,-0.623289,-0.991250,1.131915,-0.337524,-0.285725,-0.043059,0.051584
0.015494,0.136066,0.012634,0.194629,-0.146988,0.075100,0.294820,-0.188730,0.033202,0.317440,0.468085,0.009478,0.048867,-0.437052,-0.474229,0.279249,-0.303255,0.045592,0.104524,-0.111812,0.185076,-0.551083,-0.621694,-0.987262,1.130815,-0.335702,-0.287004,-0.050731,0.054723
0.017356,0.138018,0.015275,0.191864,-0.146113,0.074361,0.292950,-0.189885,0.030489,0.312100,0.468139,0.008148,0.042513,-0.437218,-0.475316,0.279186,-0.301560,0.047505,0.104121,-0.122564,0.190786,-0.543007,-0.619711,-0.984245,1.131129,-0.332971,-0.288867,-0.059052,0.058773
0.020214,0.140513,0.019054,0.187970,-0.146022,0.072844,0.289665,-0.192967,0.028299,0.305827,0.468828,0.005975,0.036395,-0.436391,-0.478008,0.279209,-0.300413,0.048725,0.101831,-0.132516,0.197756,-0.534075,-0.615501,-0.981290,1.130689,-0.329384,-0.289469,-0.065323,0.061722
0.023568,0.143278,0.023403,0.183512,-0.146322,0.070938,0.285672,-0.197013,0.026369,0.299089,0.469834,0.003381,0.030394,-0.435066,-0.481503,0.279274,-0.299539,0.049598,0.098597,-0.142066,0.205355,-0.524716,-0.610179,-0.978365,1.129871,-0.325370,-0.289441,-0.070568,0.064121
0.026233,0.146556,0.026475,0.179382,-0.144806,0.069968,0.280215,-0.199208,0.024285,0.293382,0.471270,-0.000293,0.023084,-0.434250,-0.483934,0.281273,-0.299466,0.050386,0.095431,-0.151480,0.212039,-0.515596,-0.604690,-0.971987,1.126185,-0.321125,-0.290111,-0.075968,0.064117
0.029098,0.150209,0.029717,0.175480,-0.143312,0.068759,0.274809,-0.201196,0.022494,0.287603,0.472400,-0.003873,0.015610,-0.433552,-0.486958,0.282661,-0.299315,0.051379,0.092000,-0.160252,0.218311,-0.506408,-0.598321,-0.965479,1.120844,-0.317379,-0.290755,-0.081375,0.064233
0.032364,0.154609,0.033298,0.172033,-0.141864,0.067070,0.269507,-0.202769,0.021289,0.281680,0.472914,-0.007266,0.007811,-0.433093,-0.491164,0.282827,-0.299008,0.052782,0.088041,-0.167743,0.223758,-0.497083,-0.590192,-0.958710,1.112194,-0.314633,-0.291346,-0.086794,0.064590
0.035349,0.158658,0.037309,0.167471,-0.141240,0.065149,0.263631,-0.205063,0.019816,0.275051,0.474217,-0.011585,0.000545,-0.431581,-0.496323,0.283670,-0.299394,0.054325,0.084101,-0.174637,0.229565,-0.487565,-0.580905,-0.948671,1.101495,-0.311445,-0.290654,-0.089384,0.063816
0.038194,0.162531,0.041536,0.162351,-0.141030,0.063110,0.257466,-0.207717,0.018208,0.268068,0.475914,-0.016368,-0.006455,-0.429544,-0.501958,0.284851,-0.300127,0.055938,0.080171,-0.181233,0.235553,-0.477952,-0.571040,-0.936998,1.089770,-0.308035,-0.289322,-0.090559,0.062476
0.041936,0.167976,0.046002,0.155720,-0.143029,0.060052,0.250702,-0.214365,0.017970,0.261465,0.481368,-0.020812,-0.012810,-0.426677,-0.507957,0.286174,-0.301170,0.058035,0.074621,-0.189344,0.242469,-0.467576,-0.559937,-0.926531,1.075174,-0.305388,-0.287647,-0.085380,0.061258
0.044930,0.172434,0.050085,0.149440,-0.144374,0.057033,0.244511,-0.219426,0.017394,0.255211,0.486800,-0.025237,-0.019176,-0.423341,-0.513033,0.287480,-0.302053,0.060154,0.069220,-0.197147,0.248507,-0.458427,-0.549211,-0.916562,1.061484,-0.302558,-0.286115,-0.081989,0.059745
0.046429,0.174915,0.053405,0.143862,-0.144407,0.054093,0.239467,-0.221316,0.016141,0.249659,0.492187,-0.029627,-0.025560,-0.419067,-0.516261,0.288751,-0.302614,0.062317,0.064120,-0.204336,0.252789,-0.451732,-0.539235,-0.907589,1.049603,-0.299363,-0.284871,-0.082176,0.057642
0.047347,0.176907,0.056758,0.137878,-0.146385,0.051777,0.234349,-0.225169,0.014482,0.242745,0.499423,-0.034901,-0.030873,-0.419202,-0.521373,0.292529,-0.304053,0.065580,0.058783,-0.211292,0.256127,-0.442876,-0.530005,-0.900080,1.041953,-0.294810,-0.287708,-0.084106,0.052531
0.047973,0.178654,0.060128,0.131692,-0.149336,0.049772,0.229193,-0.230004,0.012621,0.235150,0.507583,-0.040617,-0.035651,-0.421542,-0.527427,0.297562,-0.305931,0.069392,0.053328,-0.218133,0.258994,-0.432940,-0.521148,-0.893304,1.036418,-0.289579,-0.292584,-0.086906,0.045916
0.048682,0.179664,0.062867,0.123888,-0.152355,0.045404,0.226087,-0.233999,0.011465,0.227734,0.516316,-0.045667,-0.040221,-0.419079,-0.531609,0.300732,-0.307478,0.072509,0.050087,-0.224345,0.258170,-0.428835,-0.513836,-0.884464,1.022227,-0.287771,-0.294714,-0.089098,0.040749
0.048937,0.180253,0.064856,0.116138,-0.155069,0.041115,0.222298,-0.237772,0.010601,0.221063,0.525158,-0.050820,-0.044033,-0.416505,-0.534202,0.303751,-0.308852,0.075632,0.047475,-0.230882,0.256674,-0.425424,-0.507348,-0.877462,1.010010,-0.286651,-0.296849,-0.089291,0.035152
0.048285,0.179997,0.065342,0.108497,-0.157174,0.036987,0.217143,-0.241102,0.010320,0.215881,0.534219,-0.056176,-0.046329,-0.413706,-0.533615,0.306467,-0.309881,0.078769,0.046119,-0.238068,0.253835,-0.423399,-0.502511,-0.874136,1.001742,-0.286906,-0.298994,-0.085483,0.028698
0.046928,0.179530,0.065580,0.101342,-0.158927,0.033206,0.210886,-0.244492,0.009521,0.211689,0.543546,-0.062096,-0.047771,-0.411234,-0.532285,0.311056,-0.312841,0.081069,0.043567,-0.244269,0.248704,-0.424613,-0.502648,-0.867446,0.991526,-0.286676,-0.301204,-0.087230,0.026320
0.045217,0.178958,0.065696,0.094429,-0.160504,0.029599,0.204077,-0.247912,0.008463,0.207992,0.553006,-0.068296,-0.048786,-0.408925,-0.530583,0.316582,-0.316765,0.082949,0.040417,-0.249977,0.242427,-0.427446,-0.505272,-0.859076,0.980336,-0.286205,-0.303445,-0.091754,0.025979
0.042579,0.176791,0.064576,0.088921,-0.159198,0.026488,0.202303,-0.247177,0.008476,0.202842,0.556031,-0.073366,-0.046673,-0.405041,-0.525278,0.320601,-0.318975,0.084608,0.040393,-0.256493,0.235565,-0.428705,-0.504328,-0.851738,0.972587,-0.284317,-0.303647,-0.093186,0.022381
0.040386,0.175273,0.063795,0.083468,-0.158072,0.023240,0.200207,-0.247124,0.008192,0.196896,0.556932,-0.078698,-0.044024,-0.400540,-0.521189,0.324760,-0.321796,0.085598,0.040101,-0.261489,0.228038,-0.430578,-0.504475,-0.843688,0.963602,-0.282664,-0.303451,-0.095276,0.020121
0.039084,0.175054,0.063688,0.078127,-0.157306,0.019721,0.197467,-0.248433,0.007312,0.189358,0.553583,-0.084557,-0.040302,-0.394805,-0.519531,0.329200,-0.325842,0.085247,0.039272,-0.263448,0.219179,-0.433681,-0.506805,-0.834212,0.952146,-0.281481,-0.302461,-0.098681,0.020537
0.037968,0.175907,0.063214,0.074704,-0.155496,0.017621,0.193966,-0.249209,0.007096,0.181639,0.547754,-0.089867,-0.035170,-0.389026,-0.516115,0.333808,-0.329636,0.084113,0.037079,-0.263705,0.209150,-0.434654,-0.508429,-0.822779,0.939576,-0.279884,-0.301692,-0.101089,0.020592
0.036945,0.177298,0.062556,0.072240,-0.153164,0.016230,0.190085,-0.249717,0.007213,0.173830,0.540684,-0.094902,-0.029334,-0.383227,-0.511819,0.338500,-0.333304,0.082586,0.034202,-0.263113,0.198535,-0.434561,-0.509700,-0.810367,0.926449,-0.278081,-0.301034,-0.103000,0.020467
0.038483,0.178158,0.060415,0.071150,-0.145518,0.015118,0.185345,-0.246658,0.011142,0.167585,0.525864,-0.098909,-0.017962,-0.375919,-0.502858,0.340823,-0.336348,0.079852,0.033076,-0.263505,0.192032,-0.430614,-0.499878,-0.808154,0.924996,-0.276112,-0.298623,-0.103303,0.018235
0.040514,0.178818,0.057811,0.069959,-0.136125,0.014115,0.181050,-0.241933,0.015449,0.160490,0.508855,-0.101835,-0.005593,-0.369399,-0.491904,0.343149,-0.339025,0.077634,0.032423,-0.264632,0.186309,-0.424168,-0.485109,-0.806591,0.926045,-0.274098,-0.295960,-0.105609,0.016186
0.043529,0.179076,0.054283,0.068567,-0.123241,0.013332,0.177649,-0.233881,0.020514,0.151694,0.487467,-0.102602,0.008769,-0.364457,-0.476963,0.345481,-0.340969,0.076449,0.032720,-0.267228,0.182146,-0.412724,-0.460446,-0.806330,0.932099,-0.271994,-0.292794,-0.111919,0.014501
0.047624,0.182230,0.052442,0.066868,-0.113872,0.011716,0.174563,-0.230274,0.025163,0.141761,0.464561,-0.101793,0.023719,-0.359109,-0.466007,0.347198,-0.343587,0.075548,0.032109,-0.267704,0.177765,-0.396965,-0.429132,-0.803889,0.928892,-0.271900,-0.290382,-0.110583,0.010824
0.052259,0.186831,0.051446,0.065016,-0.106261,0.009685,0.171635,-0.228891,0.029604,0.131259,0.440896,-0.100198,0.038962,-0.353558,-0.457043,0.348608,-0.346542,0.074789,0.031045,-0.267120,0.173275,-0.379047,-0.394491,-0.800359,0.921055,-0.272809,-0.288347,-0.105423,0.006150
0.056453,0.191532,0.052029,0.063201,-0.100217,0.008096,0.162653,-0.226717,0.032225,0.121188,0.417848,-0.097338,0.053929,-0.349763,-0.449058,0.349153,-0.350555,0.073122,0.029403,-0.265050,0.169730,-0.354940,-0.354243,-0.795585,0.903465,-0.272870,-0.285416,-0.094414,0.000432
0.060982,0.195929,0.052906,0.061251,-0.093757,0.006423,0.153440,-0.222764,0.034690,0.111817,0.394707,-0.093705,0.068333,-0.346035,-0.440575,0.349399,-0.355085,0.071606,0.027940,-0.263339,0.166988,-0.327730,-0.310803,-0.787786,0.879105,-0.272579,-0.281164,-0.083267,-0.005449
0.066182,0.199717,0.054373,0.059033,-0.086467,0.004581,0.143761,-0.215255,0.036845,0.103847,0.371380,-0.088525,0.081612,-0.342441,-0.431098,0.349047,-0.360649,0.070394,0.026835,-0.262347,0.165853,-0.294315,-0.260981,-0.773934,0.841204,-0.271585,-0.274271,-0.071845,-0.011659
0.071824,0.201949,0.056488,0.057230,-0.079658,0.003717,0.133357,-0.207762,0.037871,0.098418,0.348977,-0.082736,0.094887,-0.340172,-0.421192,0.347866,-0.366480,0.068652,0.025718,-0.263401,0.169202,-0.252010,-0.207236,-0.760557,0.798604,-0.267445,-0.265278,-0.060062,-0.014345
0.077687,0.203404,0.058927,0.055634,-0.073089,0.003343,0.122590,-0.200277,0.038332,0.094260,0.327035,-0.076644,0.108162,-0.338567,-0.411070,0.346270,-0.372443,0.066645,0.024595,-0.265477,0.174792,-0.205258,-0.151530,-0.747418,0.753654,-0.261733,-0.255237,-0.048098,-0.015269
0.084005,0.203776,0.060791,0.053887,-0.067955,0.005236,0.117376,-0.192132,0.037435,0.091976,0.306762,-0.070153,0.120923,-0.338848,-0.399481,0.341659,-0.372117,0.064413,0.023818,-0.269290,0.185384,-0.146911,-0.089686,-0.731677,0.720696,-0.253141,-0.243084,-0.035685,-0.017917
0.090941,0.204815,0.062844,0.053041,-0.062142,0.007261,0.115628,-0.183376,0.034923,0.089229,0.283548,-0.064845,0.128317,-0.339718,-0.386743,0.335894,-0.371527,0.062669,0.022515,-0.273548,0.198534,-0.079893,-0.019176,-0.708012,0.680422,-0.243423,-0.230168,-0.023522,-0.022420
0.099111,0.207185,0.065275,0.053999,-0.054968,0.009549,0.120814,-0.173398,0.029183,0.085557,0.254451,-0.061901,0.124975,-0.341763,-0.371707,0.327822,-0.370409,0.061897,0.020161,-0.278699,0.216802,0.004468,0.068666,-0.668497,0.625514,-0.231452,-0.215727,-0.011862,-0.030632
0.106314,0.208655,0.065487,0.055434,-0.048618,0.012306,0.126248,-0.165315,0.023556,0.082857,0.229719,-0.058561,0.118718,-0.342906,-0.356318,0.319594,-0.365080,0.061030,0.018119,-0.286308,0.237367,0.096860,0.161822,-0.609791,0.583145,-0.216898,-0.201531,0.001809,-0.041143
0.113034,0.209675,0.064590,0.057108,-0.042681,0.015298,0.131807,-0.158179,0.017985,0.080645,0.207170,-0.055024,0.111004,-0.343598,-0.340753,0.311287,-0.357645,0.060115,0.016232,-0.295147,0.259081,0.193269,0.257634,-0.541488,0.547044,-0.201052,-0.187457,0.016485,-0.052805
0.115268,0.209918,0.061156,0.058701,-0.039363,0.017429,0.134635,-0.154799,0.013298,0.083894,0.189276,-0.056027,0.101343,-0.343225,-0.328145,0.299372,-0.345491,0.057854,0.014827,-0.315576,0.288669,0.310115,0.367181,-0.472603,0.516877,-0.188773,-0.175281,0.028351,-0.060535
0.117227,0.210286,0.057135,0.060334,-0.035181,0.019584,0.135599,-0.150454,0.009041,0.088148,0.172083,-0.056608,0.090072,-0.342688,-0.315599,0.285753,-0.332765,0.055776,0.012447,-0.338609,0.319531,0.429085,0.477986,-0.405279,0.479931,-0.178298,-0.163026,0.038637,-0.063439
0.118635,0.210905,0.051939,0.062048,-0.029271,0.021789,0.132838,-0.144179,0.005649,0.094408,0.156289,-0.056349,0.075580,-0.341823,-0.303175,0.268728,-0.318897,0.054064,0.008118,-0.366850,0.352942,0.552303,0.591307,-0.341075,0.429424,-0.171431,-0.150617,0.045766,-0.056692
0.120614,0.211201,0.045693,0.064597,-0.022741,0.024140,0.130700,-0.136983,0.002468,0.098094,0.137896,-0.057092,0.062292,-0.338648,-0.290556,0.252076,-0.304117,0.051177,0.004030,-0.396704,0.386486,0.669940,0.697836,-0.275672,0.379508,-0.168680,-0.138940,0.043568,-0.039687
0.122879,0.211335,0.038923,0.067563,-0.015902,0.026565,0.128874,-0.129326,-0.000606,0.100494,0.118204,-0.058337,0.049607,-0.334319,-0.277840,0.235610,-0.288881,0.047702,0.000063,-0.427364,0.420095,0.784785,0.800969,-0.209667,0.329887,-0.167987,-0.127630,0.036706,-0.017553
0.126453,0.213463,0.031372,0.072092,-0.009081,0.029140,0.130727,-0.123685,-0.001277,0.103294,0.101075,-0.058013,0.036939,-0.331590,-0.268345,0.220020,-0.273314,0.044554,-0.000803,-0.453749,0.445361,0.886940,0.891197,-0.152708,0.277930,-0.162710,-0.115880,0.017996,0.007604
0.129202,0.215114,0.024728,0.076268,-0.003105,0.031573,0.131966,-0.118824,-0.002252,0.106948,0.086197,-0.056387,0.026789,-0.330189,-0.259261,0.206392,-0.260157,0.041339,-0.001052,-0.476594,0.466816,0.976819,0.969824,-0.103650,0.231807,-0.156087,-0.105096,0.001275,0.028455
0.130299,0.215810,0.019899,0.079736,0.001180,0.033720,0.131980,-0.115521,-0.003839,0.112312,0.075821,-0.052157,0.021677,-0.331445,-0.251000,0.196689,-0.251816,0.037990,-0.000068,-0.492358,0.480648,1.042146,1.025249,-0.070393,0.197355,-0.146771,-0.096246,-0.011468,0.040692
0.131105,0.218373,0.016206,0.082480,0.004804,0.034762,0.133886,-0.114820,-0.005122,0.117047,0.064982,-0.048863,0.017907,-0.333146,-0.244718,0.187945,-0.245211,0.036231,0.000865,-0.500218,0.487859,1.091772,1.065661,-0.047386,0.167943,-0.142630,-0.092662,-0.023118,0.051070
0.131766,0.221869,0.013081,0.084861,0.008098,0.035252,0.136737,-0.115420,-0.006254,0.121467,0.053910,-0.046037,0.014809,-0.335071,-0.239425,0.179679,-0.239473,0.035268,0.001771,-0.504125,0.491760,1.133547,1.098564,-0.029506,0.141052,-0.141076,-0.091710,-0.034223,0.060518
0.134040,0.223284,0.010875,0.085303,0.009152,0.035668,0.140467,-0.114300,-0.007219,0.121782,0.045999,-0.043080,0.013160,-0.335229,-0.235147,0.175670,-0.237520,0.034927,0.002574,-0.505051,0.493795,1.157125,1.115110,-0.017886,0.124660,-0.141659,-0.091049,-0.033872,0.063356
0.136589,0.225368,0.008698,0.085994,0.010492,0.036202,0.143299,-0.112656,-0.007933,0.121921,0.037657,-0.039726,0.011953,-0.335538,-0.231453,0.172299,-0.236371,0.034132,0.002749,-0.505229,0.494960,1.178187,1.129772,-0.008680,0.110408,-0.142164,-0.090540,-0.033195,0.065274
0.139690,0.228789,0.006578,0.087182,0.012405,0.036975,0.144336,-0.109961,-0.008144,0.121708,0.028455,-0.035577,0.011631,-0.336149,-0.228928,0.170203,-0.236827,0.032430,0.001669,-0.503913,0.494386,1.194218,1.140666,-0.004302,0.100437,-0.142511,-0.090335,-0.031868,0.065353
0.141350,0.230781,0.004804,0.087643,0.013189,0.037707,0.146118,-0.110714,-0.007971,0.120925,0.020950,-0.032743,0.012378,-0.336034,-0.225382,0.168413,-0.237220,0.031379,0.001212,-0.502449,0.494089,1.206963,1.146860,-0.000143,0.097119,-0.143279,-0.092282,-0.030556,0.062603
0.142288,0.232058,0.003203,0.087740,0.013410,0.038419,0.148272,-0.113192,-0.007607,0.119858,0.014294,-0.030567,0.013660,-0.335558,-0.221326,0.166776,-0.237580,0.030654,0.001068,-0.500911,0.493931,1.218066,1.150704,0.003905,0.097127,-0.144258,-0.095304,-0.029250,0.058437
0.144088,0.233259,0.001662,0.087389,0.013655,0.039185,0.149266,-0.111083,-0.007539,0.117851,0.009112,-0.028602,0.015015,-0.335112,-0.216749,0.166245,-0.239040,0.030575,0.000538,-0.500306,0.493785,1.223153,1.151894,0.006064,0.096262,-0.145664,-0.096834,-0.025145,0.054621
0.145703,0.234342,0.000407,0.087170,0.013979,0.039875,0.150301,-0.109233,-0.007553,0.116062,0.004056,-0.026749,0.016392,-0.334518,-0.212422,0.165767,-0.240449,0.030572,0.000569,-0.499560,0.493685,1.227604,1.152908,0.007265,0.095351,-0.146684,-0.098020,-0.021396,0.051235
0.146947,0.235188,-0.000275,0.087214,0.014458,0.040412,0.151417,-0.107903,-0.007729,0.114711,-0.000748,-0.025119,0.017811,-0.333630,-0.208591,0.165394,-0.241756,0.030719,0.001721,-0.498532,0.493676,1.230781,1.153565,0.006554,0.094351,-0.146933,-0.098518,-0.018361,0.048709
0.149076,0.237219,-0.000587,0.087032,0.014812,0.040663,0.153331,-0.108114,-0.007855,0.112485,-0.006102,-0.023624,0.018855,-0.332392,-0.204885,0.164689,-0.242598,0.031024,0.002897,-0.496863,0.493507,1.233098,1.154587,0.005331,0.092026,-0.146944,-0.098505,-0.016498,0.046938
0.151646,0.239843,-0.000713,0.086738,0.015104,0.040770,0.155643,-0.109097,-0.007955,0.109822,-0.011731,-0.022194,0.019710,-0.330979,-0.201242,0.163819,-0.243208,0.031407,0.004084,-0.494874,0.493256,1.234985,1.155790,0.003851,0.089039,-0.146836,-0.098236,-0.015221,0.045545
0.154954,0.241251,-0.001909,0.085995,0.015104,0.040986,0.156928,-0.108385,-0.008287,0.105959,-0.015309,-0.020870,0.019263,-0.329349,-0.198025,0.162792,-0.242913,0.031483,0.006335,-0.494280,0.492316,1.237164,1.159164,0.006743,0.086196,-0.145910,-0.096991,-0.010040,0.043237
0.157738,0.242285,-0.003102,0.085379,0.014977,0.041134,0.157816,-0.108498,-0.008734,0.102335,-0.018999,-0.019787,0.018639,-0.327225,-0.194878,0.161730,-0.242415,0.031362,0.009053,-0.493672,0.491193,1.239405,1.161766,0.009191,0.084466,-0.145584,-0.096521,-0.005742,0.041013
0.159472,0.242572,-0.004289,0.085017,0.014594,0.041143,0.157910,-0.110260,-0.009413,0.099191,-0.022916,-0.019187,0.017662,-0.324114,-0.191873,0.160600,-0.241513,0.030845,0.012705,-0.493038,0.489707,1.241768,1.162824,0.010751,0.084963,-0.146460,-0.097600,-0.003207,0.038953
0.161034,0.243007,-0.005091,0.084918,0.014779,0.041261,0.159255,-0.111327,-0.010550,0.096024,-0.027938,-0.019143,0.017059,-0.322357,-0.188660,0.159576,-0.240319,0.030801,0.014091,-0.492058,0.487876,1.244880,1.164984,0.011919,0.084837,-0.145723,-0.097419,-0.002365,0.036727
0.162511,0.243518,-0.005700,0.084950,0.015247,0.041433,0.161225,-0.112046,-0.011915,0.092847,-0.033513,-0.019376,0.016644,-0.321277,-0.185345,0.158604,-0.238979,0.030994,0.014343,-0.490905,0.485873,1.248367,1.167696,0.012891,0.084401,-0.144178,-0.096608,-0.002370,0.034417
0.163213,0.243516,-0.005924,0.084409,0.015691,0.041492,0.163754,-0.111652,-0.012833,0.090780,-0.037024,-0.019769,0.016508,-0.320587,-0.182370,0.157892,-0.237531,0.032765,0.012898,-0.489780,0.484545,1.250608,1.169569,0.014513,0.082408,-0.141890,-0.094769,-0.000897,0.033487
0.164103,0.243908,-0.006063,0.083802,0.015966,0.041557,0.166081,-0.111669,-0.013409,0.088761,-0.040408,-0.020026,0.016355,-0.320162,-0.180090,0.157354,-0.236334,0.034459,0.011315,-0.488723,0.483554,1.252411,1.170828,0.015785,0.080331,-0.139734,-0.092939,0.000881,0.033430
0.165371,0.245088,-0.006032,0.083062,0.015905,0.041631,0.168005,-0.112507,-0.013299,0.086836,-0.043540,-0.020008,0.016167,-0.320270,-0.179198,0.157167,-0.235639,0.035996,0.009456,-0.487802,0.483236,1.253336,1.170861,0.016359,0.078088,-0.137845,-0.091127,0.003271,0.035120
0.166871,0.246908,-0.006200,0.082188,0.016140,0.041718,0.168880,-0.110972,-0.013182,0.085454,-0.047013,-0.020177,0.015636,-0.319770,-0.178412,0.157215,-0.235616,0.037009,0.007253,-0.487587,0.483590,1.254052,1.170939,0.016144,0.075649,-0.135213,-0.088862,0.004674,0.037148
0.168486,0.249048,-0.006467,0.081247,0.016521,0.041812,0.169231,-0.108251,-0.013062,0.084342,-0.050657,-0.020438,0.014935,-0.318965,-0.177679,0.157380,-0.235928,0.037761,0.004880,-0.487724,0.484280,1.254664,1.171041,0.015534,0.073113,-0.132211,-0.086371,0.005583,0.039346
0.169092,0.250289,-0.006734,0.080615,0.016840,0.041589,0.171162,-0.107415,-0.012862,0.083777,-0.053596,-0.021161,0.014582,-0.318041,-0.176845,0.157333,-0.235811,0.038141,0.003205,-0.486880,0.484199,1.253911,1.170308,0.016849,0.070179,-0.131341,-0.086151,0.007857,0.037156
0.169616,0.251089,-0.007108,0.080003,0.017138,0.041446,0.172645,-0.107097,-0.012683,0.083199,-0.055818,-0.021895,0.014298,-0.317129,-0.175779,0.157205,-0.235381,0.038515,0.001968,-0.486172,0.483864,1.253389,1.169964,0.018608,0.067656,-0.130488,-0.086057,0.009990,0.034671
0.169976,0.251003,-0.007698,0.079434,0.017396,0.041462,0.173233,-0.107815,-0.012543,0.082599,-0.056609,-0.022653,0.014150,-0.316244,-0.174247,0.156913,-0.234326,0.038876,0.001605,-0.485739,0.483021,1.253330,1.170398,0.021250,0.065955,-0.129668,-0.086214,0.011840,0.031596
0.169982,0.250534,-0.008308,0.078836,0.017555,0.041712,0.173366,-0.108443,-0.012457,0.082219,-0.056913,-0.023794,0.013843,-0.316214,-0.172763,0.156933,-0.233544,0.039214,0.001502,-0.486657,0.482777,1.253798,1.171240,0.025436,0.065687,-0.129032,-0.086823,0.013884,0.029331
0.169811,0.249873,-0.008927,0.078226,0.017665,0.042079,0.173271,-0.109025,-0.012398,0.081949,-0.056975,-0.025125,0.013457,-0.316612,-0.171303,0.157109,-0.232898,0.039539,0.001528,-0.488252,0.482833,1.254529,1.172285,0.030394,0.066136,-0.128488,-0.087657,0.016027,0.027472
0.169368,0.249354,-0.009252,0.077532,0.017384,0.042150,0.173549,-0.109505,-0.012334,0.082710,-0.056961,-0.026762,0.013116,-0.317010,-0.170871,0.156945,-0.232269,0.039156,0.001349,-0.489564,0.483305,1.255201,1.174770,0.034746,0.063672,-0.128472,-0.087963,0.017930,0.025934
0.168976,0.248829,-0.009658,0.076994,0.017177,0.042171,0.174043,-0.109648,-0.012254,0.083382,-0.056951,-0.028320,0.012693,-0.317397,-0.170510,0.156653,-0.231480,0.039082,0.001102,-0.490708,0.483499,1.255918,1.177050,0.038861,0.061275,-0.128324,-0.088215,0.019540,0.024764
